!!!!SEGMENT: pl-kk--kk-i-2--046-002_anonim--officium-a-4-voci-paschale-gloria.krn
!!!cenid: 16xx:1719
!!!COM: Anonim
!!!COM-rismID: pe30004985
!!!CDT:
!!!CNT:
!!!OPR: Officium A 4 Voci Paschale
!!!OTL: Gloria
!!!OMV: 002
!!!PDT:
!!!AGN: Sacred; Mass
!!!YEC: Copyright 2022 Narodowy Instytut Fryderyka Chopina (https://polishscores.org)
!!!YEM: License CC-BY-4.0 (https://creativecommons.org/licenses/by/4.0)
!!!SMS-siglum: PL-Kk
!!!SMS-shelfmark: Kk.I.2
!!!SMS-shelfwork: 046-002 M
!!!NIFC-rismSourceID: 300258016
!!!NIFC-rismChildID: 300258064
!!!NIFC-islandoraID: pl-kk:750
!!!URL-pdf-islandora: https://repozytorium.nifc.pl/islandora/object/pl-kk%3A750/datastream/PDF/view
!!!URL-scan: https://polish.musicsources.pl/pl/lokalizacje/galeria/rekopisy/5828 @EN{Scan on Polish Music Sources Website} @PL{Skany w portalu Dziedzictwo Muzyki Polskiej w otwartym dostępie}
!!!IIIF: https://repozytorium.nifc.pl/islandora/object/pl-kk%3A750/datastream/IIIF/view
!!!ONB-nifc: Części mszy: Kyrie, Gloria, Credo, Sanctus, Agnus Dei; skany: C: 0075-0077; A: 0178-0180; T: 0278-0280; B: 0379-0380;
!!!AIN: 4 empty
!!!key: d:dor
**kern	**text	**kern	**text	**kern	**text	**kern	**text
*part4	*	*part3	*	*part2	*	*part1	*
*staff4	*	*staff3	*	*staff2	*	*staff1	*
*Iempty	*	*Iempty	*	*Iempty	*	*Iempty	*
*I"&quot;BASSUS	*	*I"&quot;TENOR	*	*I"&quot;ALTUS	*	*I"&quot;CANTUS	*
*ICvox	*	*ICvox	*	*ICvox	*	*ICvox	*
*clefF4	*	*clefC4	*	*clefC4	*	*clefC3	*
*k[]	*	*k[]	*	*k[]	*	*k[]	*
*d:dor	*	*d:dor	*	*d:dor	*	*d:dor	*
*M2/1	*	*M2/1	*	*M2/1	*	*M2/1	*
*met(C|)	*	*met(C|)	*	*met(C|)	*	*met(C|)	*
=1-	=1-	=1-	=1-	=1-	=1-	=1-	=1-
*xywh-pl-kk--i-2--0379:1690,2247,6065,1071	*	*xywh-pl-kk--i-2--0278:7898,2202,6344,1039	*	*xywh-pl-kk--i-2--0178:7974,3621,6192,1274	*	*xywh-pl-kk--i-2--0075:1892,3729,5958,1519	*
*lig	*	*	*	*	*	*	*
!LO:TX:a:t=P:all\right&colon;global:problem	!	!LO:TX:a:t=P:all\right&colon;global:problem	!	!LO:TX:a:t=P:all\right&colon;global:problem	!	!LO:TX:a:t=P:all\right&colon;global:problem	!
1D\	Et	2.F/	Et	2.A/	Et	1d\	Et
!	!	!LO:TX:t=P:problem=kreska pseudotaktowa	!	!LO:TX:t=P:problem=kreska pseudotaktowa	!	!	!
.	.	4F/	in	4A/	in	.	.
!	!	!	!	!	!	!LO:TX:t=P:problem=kreska pseudotaktowa	!
2.AA/	et	2E/	ter-	2A/	ter-	1c\	in
!	!	!	!	!LO:TX:t=P:problem=kreska pseudotaktowa	!	!	!
.	.	2E/	-ra	2A/	-ra	.	.
*Xlig	*	*	*	*	*	*	*
!LO:TX:t=P:problem=kreska pseudotaktowa	!	!	!	!	!	!	!
4AA/	in	.	.	.	.	.	.
=2-	=2-	=2-	=2-	=2-	=2-	=2-	=2-
!	!	!LO:TX:t=P:problem=kreska pseudotaktowa	!	!	!	!	!
2D/	ter-	1F#X/	pax	1A\	pax	0d\	ter-
2D/	-ra	.	.	.	.	.	.
*	*	*	*ij	*2\right	*ij	*	*
1G\	pax	2.G/	Et	2.B\	Et	.	.
!	!	!LO:TX:t=P:problem=kreska pseudotaktowa	!	!LO:TX:t=P:problem=kreska pseudotaktowa	!	!	!
.	.	4B\	in	4G/	in	.	.
=3-	=3-	=3-	=3-	=3-	=3-	=3-	=3-
*2\right	*	*2\right	*	*	*	*	*
!	!	!	!	!	!	!LO:TX:t=P:problem=kreska pseudotaktowa	!
2.F\	et	2c\	ter-	2A/	ter-	1f\	-ra
.	.	2c\	-ra	2A/	-ra	.	.
!LO:TX:t=P:problem=kreska pseudotaktowa	!	!	!	!	!	!	!
4F\	in	.	.	.	.	.	.
2C/	ter-	2c\	pax	2e\	pax	1g\	pax
*	*	*	*Xij	*	*Xij	*	*
!	!	!LO:TX:t=P:problem=kreska pseudotaktowa	!	!LO:TX:t=P:problem=kreska pseudotaktowa	!	!	!
2C/	-ra	2G/	et	2c\	et	.	.
=4-	=4-	=4-	=4-	=4-	=4-	=4-	=4-
!LO:TX:t=P:problem=kreska pseudotaktowa	!	!	!	!LO:TX:t=P:problem=kreska pseudotaktowa	!	!LO:TX:t=P:problem=kreska pseudotaktowa	!
1F\	pax	1A\	in	1c\	in	1f\	ho-
1.C/	pax	2.G/	ter-	2.c\	ter-	1e\	-mi-
!	!	!LO:TX:t=P:problem=kreska pseudotaktowa	!	!	!	!	!
.	.	4G/	-ra	4c\	-ra	.	.
=5-	=5-	=5-	=5-	=5-	=5-	=5-	=5-
*	*	*	*	*	*	*2\right	*
.	.	2A/	pax	2c\	pax	2.f\	.
!LO:TX:t=P:problem=kreska pseudotaktowa	!	!	!	!LO:TX:t=P:problem=kreska pseudotaktowa	!	!	!
2FF/	ho-	2A/	ho-	2c\	ho-	.	.
.	.	.	.	.	.	4f\	-ni-
!	!	!	!	!	!	!LO:TX:t=P:problem=kreska pseudotaktowa	!
2.GG/	-mi-	2.B-X\	-mi-	2.G/	-mi-	1d\	-bus
*	*	*custos:F	*	*	*	*	*
!	!	!LO:TX:t=P:problem=kreska pseudotaktowa	!	!	!	!	!
!	!	!	!	!LO:TX:t=P:problem=kreska pseudotaktowa	!	!	!
4GG/	-ni-	4B-\	-ni-	4G/	-ni-	.	.
*	*	*xywh-pl-kk--i-2--0278:7948,2974,6324,999	*	*	*	*	*
!	!	!LO:LB:g=original	!	!	!	!	!
=6-	=6-	=6-	=6-	=6-	=6-	=6-	=6-
!LO:TX:t=P:problem=kreska pseudotaktowa	!	!	!	!	!	!	!
1D\	-bus	2Fny/	-bus	2A/	-bus	2d\	bo-
.	.	2.F/	bo-	4A/	bo-	2d\	-nae-
*	*	*	*	*custos:B	*	*	*
!	!	!	!	!LO:TX:t=P:problem=kreska pseudotaktowa	!	!	!
.	.	.	.	4A/	-nae-	.	.
*	*	*	*	*xywh-pl-kk--i-2--0179:2034,505,5695,994	*	*	*
!	!	!	!	!LO:PB:g=original	!	!	!
2.D/	bo-	.	.	2B-X\	-vo-	2d\	-vo-
.	.	4F/	-nae	.	.	.	.
!	!	!LO:TX:t=P::problem=kreska pseudotaktowa&colon;między nutą a kropką	!	!	!	!LO:TX:t=P:problem=kreska pseudotaktowa	!
.	.	2.D/	vo-	2B-\	-lun-	2d\	-lun-
!LO:TX:t=P:problem=kreska pseudotaktowa	!	!	!	!	!	!	!
4C/	-nae	.	.	.	.	.	.
=7-	=7-	=7-	=7-	=7-	=7-	=7-	=7-
!LO:SIC:o:s:v=bemol przed kreską taktową	!	!	!	!LO:TX:t=P:problem=kreska pseudotaktowa	!	!	!
4BB-X/	vo-	.	-lun-	1B-\	-ta-	1d\	-ta-
4AA/	-lun-	4D/	-ta-	.	.	.	.
!	!	!LO:TX:t=P:problem=kreska pseudotaktowa	!	!	!	!	!
2GG/	-ta-	2G/	-tis	.	.	.	.
!LO:TX:t=P:problem=kreska pseudotaktowa	!	!	!	!	!	!	!
!LO:SIC:v:t=custosD	!	!LO:TX:t=P:problem=kreska pseudotaktowa	!	!	!	!	!
1D\	-tis	1F#X/	lau-	1.A\	-tis	2d\	-tis
!	!	!	!	!	!	!LO:TX:t=P:problem=kreska pseudotaktowa	!
.	.	.	.	.	.	2d\	lau-
*xywh-pl-kk--i-2--0379:1745,3104,5962,931	*	*	*	*	*	*	*
!LO:LB:g=original	!	!	!	!	!	!	!
=8-	=8-	=8-	=8-	=8-	=8-	=8-	=8-
2D/	lau-	2Fny/	-da-	.	.	2.d\	-da-
!	!	!	!	!LO:TX:t=P:problem=kreska pseudotaktowa	!	!	!
2.D/	-da-	2.F/	.	2A/	lau-	.	.
*	*	*	*	*	*	*custos:f	*
!	!	!	!	!	!	!LO:TX:t=P:problem=kreska pseudotaktowa	!
.	.	.	.	.	.	4e\	.
*	*	*	*	*	*	*xywh-pl-kk--i-2--0075:8002,583,6276,973	*
!	!	!	!	!	!	!LO:PB:g=original	!
.	.	.	.	2.A/	-da-	4f\	.
4E\	.	4E/	.	.	.	4g\	.
!	!	!LO:TX:t=P:problem=kreska pseudotaktowa	!	!	!	!	!
4F\	.	2D/	.	.	.	1a\	.
!LO:TX:t=P:problem=kreska pseudotaktowa	!	!	!	!LO:TX:t=P:problem=kreska pseudotaktowa	!	!	!
4G\	.	.	.	4Bny\	.	.	.
=9-	=9-	=9-	=9-	=9-	=9-	=9-	=9-
1.A\	.	4C/	.	4c\	.	.	.
.	.	2c\	.	4d\	.	.	.
.	.	.	.	1e\	.	4g\	.
!	!	!LO:TX:t=P:problem=kreska pseudotaktowa	!	!	!	!LO:TX:t=P:problem=kreska pseudotaktowa	!
.	.	4Bny\	.	.	.	4f\	.
.	.	2A/	.	.	.	2e\	.
!	!	!LO:TX:t=P:problem=kreska pseudotaktowa	!	!LO:TX:t=P:problem=kreska pseudotaktowa	!	!	!
2B-X\	-mus	2G/	-mus	2d\	-mus	2g\	-mus-
=10-	=10-	=10-	=10-	=10-	=10-	=10-	=10-
!	!	!	!	!	!	!LO:TX:t=P:problem=kreska pseudotaktowa	!
2A\	te	2A/	te	2c\	te	1e\	-te
!LO:TX:t=P::problem=kreska pseudotaktowa&colon;między nutą a kropką	!	!LO:TX:t=P:problem=kreska pseudotaktowa	!	!	!	!	!
[y2A\	be-	2c\	be-	4e\	be-	.	.
!	!	!	!	!LO:TX:t=P:problem=kreska pseudotaktowa	!	!	!
.	.	.	.	4e\	-ne-	.	.
!LO:N:xstem:cue	!	!	!	!	!	!	!
4A\]	.	2c\	-ne-	4e\	-di-	2.a\	be-
4A\	-ne-	.	.	4d\	.	.	.
4A\	-di-	2c\	-di-	4c\	.	.	.
!LO:TX:t=P:problem=kreska pseudotaktowa	!	!	!	!LO:TX:t=P:problem=kreska pseudotaktowa	!	!LO:TX:t=P:problem=kreska pseudotaktowa	!
4G\	.	.	.	4B\	.	4a\	-ne-
=11-	=11-	=11-	=11-	=11-	=11-	=11-	=11-
4F\	.	2.d\	.	1A\	.	4a\	-di-
4E\	.	.	.	.	.	4g\	.
1D\	.	.	.	.	.	4f\	.
!	!	!	!	!	!	!LO:TX:t=P:problem=kreska pseudotaktowa	!
.	.	8c\L	.	.	.	4e\	.
*	*	*custos:A	*	*	*	*	*
!	!	!LO:TX:t=P:problem=kreska pseudotaktowa	!	!	!	!	!
.	.	8B\J	.	.	.	.	.
*	*	*xywh-pl-kk--i-2--0278:7869,3687,6502,1256	*	*	*	*	*
!	!	!LO:LB:g=original	!	!	!	!	!
.	.	4A/	.	2f\	.	2d\	.
.	.	4B\	.	.	.	.	.
!LO:TX:t=P:problem=kreska pseudotaktowa	!	!LO:TX:t=P:problem=kreska pseudotaktowa	!	!LO:TX:t=P:problem=kreska pseudotaktowa	!	!LO:TX:t=P:problem=kreska pseudotaktowa	!
2C/	-ci-	2c\	.	2e\	-ci-	2e\	-ci-
=12-	=12-	=12-	=12-	=12-	=12-	=12-	=12-
!LO:TX:t=P:problem=kreska pseudotaktowa	!	!	!	!	!	!	!
1D\	-mus	2A/	-ci-	4d\	-mus-	4f\	-mus-
.	.	.	.	4e\	.	4g\	.
*	*	*	*	*custos:e	*	*	*
!	!	!	!	!LO:TX:t=P:problem=kreska pseudotaktowa	!	!	!
.	.	2d\	-mus	2f\	.	1a\	.
*	*	*	*	*xywh-pl-kk--i-2--0179:2002,1266,5804,1080	*	*	*
!	!	!	!	!LO:LB:g=original	!	!	!
!	!	!LO:TX:t=P:problem=kreska pseudotaktowa	!	!	!	!	!
1E\	te	1B\	te	1e\	-te	.	.
!	!	!	!	!	!	!LO:TX:t=P:problem=kreska pseudotaktowa	!
.	.	.	.	.	.	2g#X\	-te
=13-	=13-	=13-	=13-	=13-	=13-	=13-	=13-
2.AA/	a-	4A/	a-	1e\	a-	1a\	a-
.	.	4B\	.	.	.	.	.
.	.	4c#X\	.	.	.	.	.
!LO:TX:t=P:problem=kreska pseudotaktowa	!	!LO:TX:t=P:problem=kreska pseudotaktowa	!	!	!	!	!
4BBny/	.	4d\	.	.	.	.	.
2C#X/	.	2e\	.	2A/	-do-	2a\	-do-
!	!	!LO:TX:t=P:problem=kreska pseudotaktowa	!	!	!	!LO:TX:t=P::problem=kreska pseudotaktowa&colon;między nutą a kropką	!
2D/	-do-	2A/	-do	4A/	-ra-	2.d\	-ra-
!	!	!	!	!LO:TX:t=P:problem=kreska pseudotaktowa	!	!	!
.	.	.	.	4D/	-mus	.	.
=14-	=14-	=14-	=14-	=14-	=14-	=14-	=14-
2.GG/	-ra-	2.B-X\	ra-	1D/	te	.	.
.	.	.	.	.	.	8e\L	.
.	.	.	.	.	.	8f\J	.
*	*	*	*	*	*	*custos:d	*
.	.	.	.	.	.	1gny\	.
!LO:TX:t=P:problem=kreska pseudotaktowa	!	!	!	!	!	!	!
4AA/	.	4cny\	.	.	.	.	.
!	!	!LO:TX:t=P:problem=kreska pseudotaktowa	!	!	!	!	!
1.BB-X/	.	1d\	.	2G/	a-	.	.
*	*	*	*	*	*	*xywh-pl-kk--i-2--0075:8031,1328,6524,1032	*
!	!	!	!	!	!	!LO:LB:g=original	!
!	!	!	!	!LO:TX:t=P:problem=kreska pseudotaktowa	!	!LO:TX:t=P:problem=kreska pseudotaktowa	!
.	.	.	.	2G/	-do-	2d\	.
=15-	=15-	=15-	=15-	=15-	=15-	=15-	=15-
.	.	1D/	-mus-	2G/	-ra-	2.g\	.
2GG/	-mus-	.	.	2.d\	.	.	.
.	.	.	.	.	.	4g\	-mus-
*xywh-pl-kk--i-2--0379:1773,3840,5990,1145	*	*	*	*	*	*	*
!LO:LB:g=original	!	!LO:TX:t=P:problem=kreska pseudotaktowa	!	!	!	!LO:TX:t=P:problem=kreska pseudotaktowa	!
!	!	!	!	!	!	!LO:TX:t=P:problem=# below	!
1D\	-te	1D/	-te	.	.	1f#X\	-te
.	.	.	.	4G/	-mus	.	.
!	!	!	!	!LO:TX:t=P:problem=kreska pseudotaktowa	!	!	!
.	.	.	.	2A/	te	.	.
=16-	=16-	=16-	=16-	=16-	=16-	=16-	=16-
2AA/	glo-	2A/	glo-	2c#X\	glo-	1e\	glo-
4AA/	-ri-	4A/	-ri-	4c#\	-ri-	.	.
!LO:TX:t=P:problem=kreska pseudotaktowa	!	!LO:TX:t=P:problem=kreska pseudotaktowa	!	!LO:TX:t=P:problem=kreska pseudotaktowa	!	!	!
4AA/	-fi-	4A/	-fi-	4c#\	-fi-	.	.
*	*	*	*	*	*	*lig	*
2D/	-ca-	2A/	-ca-	4d\	-ca-	1d\	-ri-
.	.	.	.	8c#\L	.	.	.
.	.	.	.	8B\J	.	.	.
*	*	*custos:A	*	*	*	*	*
!	!	!LO:TX:t=P:problem=kreska pseudotaktowa	!	!	!	!	!
2D/	-mus	2A/	-mus	4.A/	.	.	.
!	!	!	!	!LO:TX:t=P:problem=kreska pseudotaktowa	!	!	!
.	.	.	.	8B\	.	.	.
*	*	*xywh-pl-kk--i-2--0279:1872,659,6028,1056	*	*	*	*	*
!	!	!LO:PB:g=original	!	!	!	!	!
=17-	=17-	=17-	=17-	=17-	=17-	=17-	=17-
2AA/	glo-	2A/	glo-	4cny\	.	1c\	.
.	.	.	.	4d\	-mus	.	.
!	!	!	!	!LO:TX:t=P:problem=kreska pseudotaktowa	!	!	!
4AA/	-ri-	4A/	-ri-	2e\	te	.	.
!LO:TX:t=P:problem=kreska pseudotaktowa	!	!LO:TX:t=P:problem=kreska pseudotaktowa	!	!	!	!	!
4AA/	-fi-	4A/	-fi-	.	.	.	.
*	*	*	*	*	*	*Xlig	*
4D/	-ca-	4A/	-ca-	4r	.	1d\	-fi-
4D/	-mus	4A/	-mus	4d\	glo-	.	.
!LO:TX:t=P:problem=kreska pseudotaktowa	!	!LO:TX:t=P:problem=kreska pseudotaktowa	!	!	!	!	!
*	*	*	*ij	*	*	*	*
2D/	glo-	2A/	glo-	4d\	-ri-	.	.
*	*	*	*	*custos:e	*	*	*
!	!	!	!	!LO:TX:t=P:problem=kreska pseudotaktowa	!	!	!
.	.	.	.	4d\	-fi-	.	.
!	!	!	!	!LO:LB:g=original	!	!	!
=18-	=18-	=18-	=18-	=18-	=18-	=18-	=18-
*	*	*	*	*xywh-pl-kk--i-2--0179:2087,2075,5773,1048	*	*	*
!	!	!	!	!	!	!LO:TX:t=P:problem=kreska pseudotaktowa	!
4.AA/	-ri-	4A/	-ri-	4.e\	-ca-	1c\	-ca-
.	.	4A/	-fi-	.	.	.	.
8BBny/	-fi-	.	.	8e\	-mus	.	.
!	!	!LO:TX:t=P:problem=kreska pseudotaktowa	!	!LO:TX:t=P:problem=kreska pseudotaktowa	!	!	!
4.Cny/	-ca-	2E/	-ca-	2E/	.	.	.
!LO:TX:t=P:problem=kreska pseudotaktowa	!	!	!	!	!	!	!
8AA/	-mus	.	.	.	.	.	.
*	*	*	*	*	*	*lig	*
2E\	te	2E/	-mus	4E/	te	1B/	-mus-
*	*	*	*Xij	*	*ij	*	*
.	.	.	.	2G#X/	glo-	.	.
!	!	!LO:TX:t=P:problem=kreska pseudotaktowa	!	!	!	!	!
*	*ij	*	*	*	*	*	*
2E\	glo-	2E/	glo-	.	.	.	.
!	!	!	!	!LO:TX:t=P:problem=kreska pseudotaktowa	!	!	!
.	.	.	.	4G#/	-ri-	.	.
=19-	=19-	=19-	=19-	=19-	=19-	=19-	=19-
4C/	-ri-	4E/	-ri-	4E/	-fi-	1c\	.
4AA/	-fi-	4E/	-fi-	2A/	-ca-	.	.
4AA/	-ca-	4E/	-ca-	.	.	.	.
!LO:TX:t=P:problem=kreska pseudotaktowa	!	!LO:TX:t=P:problem=kreska pseudotaktowa	!	!LO:TX:t=P:problem=kreska pseudotaktowa	!	!	!
4AA/	-mus	4A/	-mus	4A/	-mus	.	.
*	*	*	*	*	*	*Xlig	*
!	!	!	!	!LO:TX:t=P:problem=kreska pseudotaktowa	!	!LO:TX:t=P:problem=kreska pseudotaktowa	!
1D\	te	1A\	te	1F/	te	1A/	-te
*	*Xij	*	*	*	*Xij	*	*
=20-	=20-	=20-	=20-	=20-	=20-	=20-	=20-
!	!	!LO:TX:t=P:problem=kreska pseudotaktowa	!	!	!	!	!
1.AA/	Gra-	1A\	Gra-	0A\	gra-	1.e\	Gra-
.	.	1c#X\	-ti-	.	.	.	.
!	!	!	!	!	!	!LO:TX:t=P:problem=kreska pseudotaktowa	!
2AA/	-ti-	.	.	.	.	2e\	-ti-
=21-	=21-	=21-	=21-	=21-	=21-	=21-	=21-
*custos:GG	*	*	*	*	*	*	*
!LO:TX:t=P:problem=kreska pseudotaktowa	!	!	!	!	!	!	!
0D\	-as	1d\	-as	2A/	-ti-	2.f#X\	-as
!	!	!	!	!LO:TX:t=P::problem=kreska pseudotaktowa&colon;między nutą a kropką	!	!	!
.	.	.	.	[y2A/	-as	.	.
.	.	.	.	.	.	4g\	.
!	!	!LO:TX:t=P:problem=kreska pseudotaktowa	!	!	!	!	!
!	!	!	!	!LO:N:xstem:cue	!	!	!
.	.	1A\	a-	4A/]	.	2a\	.
.	.	.	.	2d\	a-	.	.
.	.	.	.	.	.	1d\	a-
!	!	!	!	!LO:TX:t=P:problem=kreska pseudotaktowa	!	!	!
.	.	.	.	4c\	.	.	.
*xywh-pl-kk--i-2--0379:7811,635,6447,1108	*	*	*	*	*	*	*
!LO:PB:g=original	!	!	!	!	!	!	!
=22-	=22-	=22-	=22-	=22-	=22-	=22-	=22-
2GG/	a-	1G/	-gi-	4B\	.	.	.
.	.	.	.	4A/	.	.	.
!	!	!	!	!	!	!LO:TX:t=P:problem=kreska pseudotaktowa	!
2GG/	-gi-	.	.	4B\	.	2d\	-gi-
!	!	!	!	!LO:TX:t=P:problem=kreska pseudotaktowa	!	!	!
.	.	.	.	4c\	.	.	.
!LO:TX:t=P:problem=kreska pseudotaktowa	!	!	!	!	!	!	!
1D\	-mus	1A\	-mus	4.d\	.	1f\	-mus
.	.	.	.	8A/	-gi-	.	.
!	!	!	!	!LO:TX:t=P:problem=kreska pseudotaktowa	!	!	!
.	.	.	.	2A/	-mus	.	.
=23-	=23-	=23-	=23-	=23-	=23-	=23-	=23-
*	*	*custos:A	*	*	*	*	*
!	!	!LO:TX:t=P:problem=kreska pseudotaktowa	!	!	!	!	!
1AA/	ti-	1A\	ti-	1A\	ti-	1e\	ti-
*	*	*	*	*custos:B	*	*custos:g	*
!	!	!LO:LB:g=original	!	!	!	!	!
!	!	!	!	!LO:TX:t=P:problem=kreska pseudotaktowa	!	!LO:TX:t=P:problem=kreska pseudotaktowa	!
!LO:TX:t=P:problem=kreska pseudotaktowa	!	!LO:TX:t=P:problem=kreska pseudotaktowa	!	!	!	!	!
*	*	*xywh-pl-kk--i-2--0279:1992,1459,5917,1001	*	*	*	*	*
!	!	!	!	!	!	!LO:TX:t=P:problem= # below	!
1D\	-bi	1A\	-bi	1A\	-bi	1f#X\	-bi
*	*	*	*	*xywh-pl-kk--i-2--0179:2072,2883,5773,963	*	*xywh-pl-kk--i-2--0075:8031,2142,6554,983	*
!	!	!	!	!LO:LB:g=original	!	!LO:LB:g=original	!
=24-	=24-	=24-	=24-	=24-	=24-	=24-	=24-
2.GG/	prop-	1G/	pro-	2.B\	pro-	2.g\	prop-
!	!	!	!	!LO:TX:t=P:problem=kreska pseudotaktowa	!	!	!
4GG/	-ter	.	.	4B\	-ter	4g\	-ter
!	!	!LO:TX:t=P:problem=kreska pseudotaktowa	!	!	!	!	!
1D\	mag-	1A\	-pter	1d\	mag-	1f#X\	ma-
=25-	=25-	=25-	=25-	=25-	=25-	=25-	=25-
!LO:TX:t=P:problem=kreska pseudotaktowa	!	!	!	!	!	!LO:TX:t=P:problem=kreska pseudotaktowa	!
1G\	-nam	1G/	mag-	2.B\	-nam	1g\	-gnam
.	.	.	.	2d\	glo-	.	.
1D\	glo-	1F/	-nam	.	.	1.a\	glo-
.	.	.	.	4A/	-ri-	.	.
!	!	!	!	!LO:TX:t=P:problem=kreska pseudotaktowa	!	!	!
.	.	.	.	2d\	-am	.	.
=26-	=26-	=26-	=26-	=26-	=26-	=26-	=26-
!	!	!LO:TX:t=P:problem=kreska pseudotaktowa	!	!	!	!	!
1AA/	.	1E/	glo-	2.c#X\	glo-	.	-ri-
.	.	.	.	.	.	2a\	-am
.	.	.	.	4c#\	-ri-	.	.
!	!	!	!	!LO:TX:t=P:problem=kreska pseudotaktowa	!	!LO:TX:t=P:problem=kreska pseudotaktowa	!
2.D/	.	1F/	-ri-	1d\	-am	1a\	tu-
4D/	-ri-	.	.	.	.	.	.
=27-	=27-	=27-	=27-	=27-	=27-	=27-	=27-
!LO:TX:t=P:problem=kreska pseudotaktowa	!	!	!	!	!	!	!
1GG/	-am	1D/	-am	4.B\	tu-	1g\	.
.	.	.	.	8A/	.	.	.
!	!	!	!	!LO:TX:t=P:problem=kreska pseudotaktowa	!	!	!
.	.	.	.	2B\	.	.	.
1D\	tu-	1F/	tu-	2d\	.	2.a\	.
.	.	.	.	2A/	.	.	.
!	!	!	!	!	!	!LO:TX:t=P:problem=kreska pseudotaktowa	!
.	.	.	.	.	.	4d\	.
=28-	=28-	=28-	=28-	=28-	=28-	=28-	=28-
!LO:TX:t=P:problem=kreska pseudotaktowa	!	!	!	!	!	!	!
1GG/	-am	1G/	-am	1B\	-am	1d\	-am
!	!	!LO:TX:t=P:problem=kreska pseudotaktowa	!	!LO:TX:t=P:problem=kreska pseudotaktowa	!	!	!
1r	.	1D/	Do-	1A\	Do-	1f\	Do-
=29-	=29-	=29-	=29-	=29-	=29-	=29-	=29-
1D\	Do-	1F/	-mi-	2A/	-mi-	2f\	-mi-
!	!	!	!	!LO:TX:t=P:problem=kreska pseudotaktowa	!	!LO:TX:t=P:problem=kreska pseudotaktowa	!
.	.	.	.	2A/	-ne	2d\	-ne
2D/	-mi-	1D/	-ne	4F/	De-	1d\	De-
.	.	.	.	4Gny/	.	.	.
!LO:TX:t=P:problem=kreska pseudotaktowa	!	!	!	!	!	!	!
2D/	-ne	.	.	4A/	.	.	.
*	*	*	*	*custos:A	*	*	*
!	!	!	!	!LO:TX:t=P:problem=kreska pseudotaktowa	!	!	!
.	.	.	.	4B/	.	.	.
*	*	*	*	*xywh-pl-kk--i-2--0179:2064,3629,5757,1157	*	*	*
!	!	!	!	!LO:LB:g=original	!	!	!
=30-	=30-	=30-	=30-	=30-	=30-	=30-	=30-
!	!	!LO:TX:t=P:problem=kreska pseudotaktowa	!	!	!	!	!
1AA/	De-	1C/	De-	2cny\	.	2e\	-us
!	!	!	!	!LO:TX:t=P:problem=kreska pseudotaktowa	!	!	!
.	.	.	.	2e\	-us	2.a\	De-
!LO:TX:t=P:problem=kreska pseudotaktowa	!	!	!	!	!	!	!
1D\	-us	1F/	-us	1.d\	rex-	.	.
.	.	.	.	.	.	4a\	-us
!	!	!	!	!	!	!LO:TX:t=P:problem=kreska pseudotaktowa	!
.	.	.	.	.	.	2a\	Rex-
=31-	=31-	=31-	=31-	=31-	=31-	=31-	=31-
!	!	!LO:TX:t=P:problem=kreska pseudotaktowa	!	!	!	!	!
2.D/	rex	1F/	rex-	.	.	4a\	-cae-
*	*	*	*	*	*	*custos:f	*
.	.	.	.	.	.	4g\	.
*	*	*	*	*	*	*xywh-pl-kk--i-2--0075:8002,2947,6455,943	*
!	!	!	!	!	!	!LO:LB:g=original	!
!	!	!	!	!LO:TX:t=P:problem=kreska pseudotaktowa	!	!	!
.	.	.	.	2A/	-cae-	4f\	.
4D/	cae-	.	.	.	.	8e\L	.
!	!	!	!	!	!	!LO:TX:t=P:problem=kreska pseudotaktowa	!
.	.	.	.	.	.	8d\J	.
*custos:D	*	*	*	*	*	*	*
!LO:TX:t=P:problem=kreska pseudotaktowa	!	!	!	!	!	!	!
1AA/	-le-	1E/	-cae-	1c\	-le-	2e\	.
.	.	.	.	.	.	2a\	.
*xywh-pl-kk--i-2--0379:7839,1473,6549,1024	*	*	*	*	*	*	*
!LO:LB:g=original	!	!	!	!	!	!	!
=32-	=32-	=32-	=32-	=32-	=32-	=32-	=32-
*	*	*custos:D	*	*	*	*	*
1D\	-ſtis	1F/	-le-	2.d\	.	1a\	-le-
!	!	!	!	!LO:TX:t=P:problem=kreska pseudotaktowa	!	!	!
.	.	.	.	4A/	.	.	.
*	*	*xywh-pl-kk--i-2--0279:1947,2216,5862,1078	*	*	*	*	*
!	!	!LO:LB:g=original	!	!	!	!	!
2.D/	De-	4D/	-ſtis	2A/	-ſtis	2f#X\	-ſtis
.	.	2F#X/	De-	.	.	.	.
.	.	.	.	4d\	De-	4a\	De-
!LO:TX:t=P:problem=kreska pseudotaktowa	!	!LO:TX:t=P:problem=kreska pseudotaktowa	!	!LO:TX:t=P:problem=kreska pseudotaktowa	!	!LO:TX:t=P:problem=kreska pseudotaktowa	!
4D/	-us	4F#/	-us	4d\	-us	4a\	-us
=33-	=33-	=33-	=33-	=33-	=33-	=33-	=33-
2D/	Pa-	1A\	Pa-	2f\	Pa-	2a\	Pa-
4C/	-ter	.	.	4e\	-ter	2fny\	-ter
!	!	!	!	!LO:TX:t=P:problem=kreska pseudotaktowa	!	!	!
4BB/	o-	.	.	4d\	.	.	.
!	!	!	!	!	!	!LO:TX:t=P:problem=kreska pseudotaktowa	!
1.AA/	-mni-	2A/	-ter	4c\	.	1a\	om-
.	.	.	.	4B\	.	.	.
!	!	!LO:TX:t=P:problem=kreska pseudotaktowa	!	!	!	!	!
.	.	2A/	o-	4A/	.	.	.
!	!	!	!	!LO:TX:t=P:problem=kreska pseudotaktowa	!	!	!
.	.	.	.	4G/	.	.	.
=34-	=34-	=34-	=34-	=34-	=34-	=34-	=34-
.	.	2.E/	-mni-	4A/	o-	2.a\	-ni-
.	.	.	.	2d\	-mni-	.	.
!LO:TX:t=P:problem=kreska pseudotaktowa	!	!	!	!	!	!	!
2AA/	-po-	.	.	.	.	.	.
!	!	!LO:TX:t=P:problem=kreska pseudotaktowa	!	!LO:TX:t=P:problem=kreska pseudotaktowa	!	!	!
.	.	4A/	-po-	4c#X\	-po-	4a\	-po-
!	!	!	!	!	!	!LO:TX:t=P:problem=kreska pseudotaktowa	!
2D/	-tens	1A\	-tens	2d\	-tens	1f#X\	-tens
2.D/	Do-	.	.	2.A/	Do-	.	.
=35-	=35-	=35-	=35-	=35-	=35-	=35-	=35-
.	.	2.A/	Do-	.	.	4.fny\	Do-
4D/	-mi-	.	.	4A/	-mi-	.	.
.	.	.	.	.	.	8f\	-mi-
!LO:TX:t=P:problem=kreska pseudotaktowa	!	!	!	!LO:TX:t=P:problem=kreska pseudotaktowa	!	!LO:TX:t=P:problem=kreska pseudotaktowa	!
2D/	-ne	.	.	2A/	-ne	2f\	-ne
!	!	!LO:TX:t=P:problem=kreska pseudotaktowa	!	!	!	!	!
.	.	4A/	-mi-	.	.	.	.
*	*	*	*	*xywh-pl-kk--i-2--0179:8062,556,6238,951	*	*	*
!	!	!	!	!LO:PB:g=original	!	!	!
1BB/	fi-	1G#X/	-ne	1B\	fi-	2d\	fi-
.	.	.	.	.	.	2d\	-li
=36-	=36-	=36-	=36-	=36-	=36-	=36-	=36-
!	!	!	!	!LO:TX:t=P:problem=kreska pseudotaktowa	!	!	!
2AA/	-li-	2A/	fi-	1cny\	-li	2.e\	u-
!	!	!LO:TX:t=P:problem=kreska pseudotaktowa	!	!	!	!	!
2.A\	-u-	2A/	-li	.	.	.	.
!	!	!	!	!	!	!LO:TX:t=P:problem=kreska pseudotaktowa	!
.	.	.	.	.	.	4d\	.
.	.	2cny\	u-	2.A/	u-	4c/	.
*	*	*	*	*	*	*custos:A	*
!LO:SIC:v:t=nieczytelny zapis	!	!	!	!	!	!	!
!LO:TX:a:t=sol	!	!	!	!	!	!	!
4G\	.	.	.	.	.	4B/	.
*	*	*	*	*	*	*xywh-pl-kk--i-2--0075:8031,3702,5889,973	*
!	!	!	!	!	!	!LO:LB:g=original	!
4F\	.	2c\	-ni	.	.	1A/	.
!LO:TX:t=P:problem=kreska pseudotaktowa	!	!	!	!	!	!	!
4E\	.	.	.	4G/	.	.	.
=37-	=37-	=37-	=37-	=37-	=37-	=37-	=37-
4D/	.	1.d\	ge-	2F/	-ni	.	.
4C/	.	.	.	.	.	.	.
4BB-X/	.	.	.	4G/	ge-	2.d\	-ni-
!LO:TX:t=P:problem=kreska pseudotaktowa	!	!	!	!LO:TX:t=P:problem=kreska pseudotaktowa	!	!	!
4AA/	.	.	.	4A/	.	.	.
2GG/	.	.	.	4B-X\	.	.	.
.	.	.	.	4c\	.	4e\	.
!	!	!LO:TX:t=P:problem=kreska pseudotaktowa	!	!	!	!	!
2FF/	-ni	2d\	-ni-	1d\	.	4f\	.
!	!	!	!	!	!	!LO:TX:t=P:problem=kreska pseudotaktowa	!
.	.	.	.	.	.	4d\	.
=38-	=38-	=38-	=38-	=38-	=38-	=38-	=38-
*	*	*custos:A	*	*	*	*	*
!	!	!LO:TX:t=P:problem=kreska pseudotaktowa	!	!	!	!	!
2.AA/	ge-	0A\	-te	.	.	2.e\	-ge-
!	!	!	!	!LO:TX:t=P:problem=kreska pseudotaktowa	!	!	!
.	.	.	.	2c#X\	-ni-	.	.
*custos:D	*	*	*	*	*	*	*
!LO:TX:t=P:problem=kreska pseudotaktowa	!	!	!	!	!	!	!
4AA/	-ni-	.	.	.	.	4e\	-ni-
*xywh-pl-kk--i-2--0379:7820,2312,6149,941	*	*	*	*	*	*	*
!LO:LB:g=original	!	!	!	!	!	!	!
!LO:TX:t=P:problem=kreska pseudotaktowa	!	!	!	!	!	!LO:TX:t=P:problem=kreska pseudotaktowa	!
1D\	-te	.	.	1d\	-te	1f#X\	-te
*	*	*xywh-pl-kk--i-2--0279:2036,3061,5839,1001	*	*	*	*	*
!	!	!LO:LB:g=original	!	!	!	!	!
=39-	=39-	=39-	=39-	=39-	=39-	=39-	=39-
*	*	*lig	*	*	*	*	*
1.F\	Je-	1A\	Je-	0cny\	Je-	2r	.
.	.	.	.	.	.	1a\	Je-
.	.	1c\	.	.	.	.	.
!LO:TX:t=P:problem=kreska pseudotaktowa	!	!	!	!	!	!LO:TX:t=P:problem=kreska pseudotaktowa	!
2AA/	-ſu	.	.	.	.	2A/	-su
*	*	*Xlig	*	*	*	*	*
=40-	=40-	=40-	=40-	=40-	=40-	=40-	=40-
!	!	!	!	!LO:TX:t=P:problem=kreska pseudotaktowa	!	!	!
*	*	*lig	*	*	*	*lig	*
1C/	Chri-	1Gny/	-ſu	1c\	-su	1e\	Chri-
!	!	!LO:TX:t=P:problem=kreska pseudotaktowa	!	!	!	!	!
*	*	*	*	*lig	*	*	*
2FF/	-ste	1Fny/	.	1A\	Chri-	2.A/	.
!LO:TX:t=P:problem=kreska pseudotaktowa	!	!	!	!	!	!	!
2F\	Je-	.	.	.	.	.	.
*	*	*	*	*	*	*Xlig	*
!	!	!	!	!	!	!LO:TX:t=P:problem=kreska pseudotaktowa	!
.	.	.	.	.	.	4B/	.
*	*	*Xlig	*	*	*	*	*
=41-	=41-	=41-	=41-	=41-	=41-	=41-	=41-
*	*	*lig	*	*	*	*	*
1C/	-ſu	1E/	Chri-	1G/	.	2c/	.
.	.	.	.	.	.	2.c/	-ſte
*	*	*	*	*Xlig	*	*	*
1FF/	chri-	1F/	.	4A/	.	.	.
.	.	.	.	4Bny\	.	4B/	.
!	!	!	!	!	!	!LO:TX:t=P:problem=kreska pseudotaktowa	!
.	.	.	.	1c\	.	2A/	.
*	*	*Xlig	*	*	*	*	*
=42-	=42-	=42-	=42-	=42-	=42-	=42-	=42-
!	!	!LO:TX:t=P:problem=kreska pseudotaktowa	!	!	!	!	!
2GG/	-ſte	0D/	-ſte	.	.	2G/	.
!LO:TX:t=P::problem=kreska pseudotaktowa&colon;między nutą a kropką	!	!	!	!	!	!	!
[y2GG/	Do-	.	.	4B\	.	2.g\	Do-
!	!	!	!	!LO:TX:t=P:problem=kreska pseudotaktowa	!	!	!
.	.	.	.	4A/	.	.	.
*	*	*	*	*custos:B	*	*	*
!LO:N:xstem:cue	!	!	!	!	!	!	!
4GG/]	.	.	.	1B\	-ſte	.	.
4GG/	-mi-	.	.	.	.	4g\	-mi-
*	*	*	*	*	*	*custos:g	*
!	!	!	!	!	!	!LO:TX:t=P:problem=kreska pseudotaktowa	!
1GG/	-ne	.	.	.	.	2g\	-ne
*	*	*	*	*xywh-pl-kk--i-2--0179:8043,1319,6489,1035	*	*xywh-pl-kk--i-2--0076:1970,606,5777,1051	*
!	!	!	!	!LO:LB:g=original	!	!LO:PB:g=original	!
=43-	=43-	=43-	=43-	=43-	=43-	=43-	=43-
.	.	1.G/	Do-	2B\	Do-	2g\	De-
!	!	!	!	!	!	!LO:TX:t=P:problem=kreska pseudotaktowa	!
1C/	-De-	.	.	4c\	-mi-	2e\	-us
!	!	!	!	!LO:TX:t=P:problem=kreska pseudotaktowa	!	!	!
.	.	.	.	4c\	-ne	.	.
.	.	.	.	2.C/	De-	2c/	ag-
!LO:TX:t=P:problem=kreska pseudotaktowa	!	!	!	!	!	!	!
2C/	-us	2G/	-mi-	.	.	2g\	-nus
!	!	!	!	!LO:TX:t=P:problem=kreska pseudotaktowa	!	!	!
.	.	.	.	4E/	-us	.	.
=44-	=44-	=44-	=44-	=44-	=44-	=44-	=44-
!	!	!LO:TX:t=P:problem=kreska pseudotaktowa	!	!	!	!	!
2BBny/	ag-	1D/	-ne	2G/	a-	1g\	De-
!	!	!	!	!LO:TX:t=P:problem=kreska pseudotaktowa	!	!	!
2GG/	-nus	.	.	2G/	-gnus	.	.
!LO:TX:t=P:problem=kreska pseudotaktowa	!	!	!	!	!	!LO:TX:t=P:problem=kreska pseudotaktowa	!
1AA/	De-	1C/	De-	1c\	De-	1e\	-i
=45-	=45-	=45-	=45-	=45-	=45-	=45-	=45-
!	!	!	!	!LO:TX:t=P:problem=kreska pseudotaktowa	!	!	!
2D/	-i	1F/	-us	1A\	-i	2r	.
2.F\	fi-	.	.	.	.	2.A/	fi-
.	.	2G/	a-	2F/	fi-	.	.
4F\	-li-	.	.	.	.	4G/	-li-
!LO:TX:t=P:problem=kreska pseudotaktowa	!	!LO:TX:t=P:problem=kreska pseudotaktowa	!	!	!	!LO:TX:t=P:problem=kreska pseudotaktowa	!
2C/	-us-	2G/	-gnus	4E/	-li-	2G/	-us
!	!	!	!	!LO:TX:t=P:problem=kreska pseudotaktowa	!	!	!
.	.	.	.	4E/	-us	.	.
=46-	=46-	=46-	=46-	=46-	=46-	=46-	=46-
2.F\	-pa-	1A\	De-	2F/	pa-	2.F/	pa-
!	!	!	!	!LO:TX:t=P:problem=kreska pseudotaktowa	!	!	!
.	.	.	.	2c\	.	.	.
!	!	!	!	!	!	!LO:TX:t=P:problem=kreska pseudotaktowa	!
4E\	.	.	.	.	.	4G/	.
!	!	!LO:TX:t=P:problem=kreska pseudotaktowa	!	!	!	!	!
4D/	.	1A\	-i	1.d\	.	2A/	.
4E\	.	.	.	.	.	.	.
4F\	.	.	.	.	.	2f\	.
*custos:A	*	*	*	*	*	*	*
!LO:TX:t=P:problem=kreska pseudotaktowa	!	!	!	!	!	!	!
4G\	.	.	.	.	.	.	.
*xywh-pl-kk--i-2--0379:7792,2964,5618,1015	*	*	*	*	*	*	*
!LO:LB:g=original	!	!	!	!	!	!	!
=47-	=47-	=47-	=47-	=47-	=47-	=47-	=47-
2A\	.	1A\	fi-	.	.	1e\	.
!	!	!	!	!LO:TX:t=P:problem=kreska pseudotaktowa	!	!	!
2AA/	.	.	.	2c\	.	.	.
!LO:TX:t=P:problem=kreska pseudotaktowa	!	!	!	!	!	!LO:TX:t=P:problem=kreska pseudotaktowa	!
1D\	.	1F/	-li-	1d\	.	1f\	-tris
=48-	=48-	=48-	=48-	=48-	=48-	=48-	=48-
!	!	!LO:TX:t=P:problem=kreska pseudotaktowa	!	!	!	!	!
1C/	-tris	1G/	-us	1e\	.	1r	.
*	*	*	*	*custos:A	*	*	*
!	!	!	!	!LO:TX:t=P:problem=kreska pseudotaktowa	!	!	!
*	*	*lig	*	*	*	*	*
2.F\	fi-	1F/	pa-	1c\	-tris	2r	.
.	.	.	.	.	.	2.a\	fi-
!LO:TX:t=P:problem=kreska pseudotaktowa	!	!	!	!	!	!	!
4G\	-li-	.	.	.	.	.	.
*	*	*	*	*xywh-pl-kk--i-2--0179:8081,2067,5874,988	*	*	*
!	!	!	!	!LO:LB:g=original	!	!	!
=49-	=49-	=49-	=49-	=49-	=49-	=49-	=49-
*	*	*custos:F	*	*	*	*	*
2A\	-us	1E/	.	2r	.	.	-li-
.	.	.	.	.	.	4a\	-us
!LO:TX:t=P:problem=kreska pseudotaktowa	!	!	!	!	!	!LO:TX:t=P:problem=kreska pseudotaktowa	!
2AA/	Pa-	.	.	2.A/	fi-	2e\	Pa-
*	*	*Xlig	*	*	*	*	*
*	*	*xywh-pl-kk--i-2--0279:1992,3806,5895,1279	*	*	*	*	*
!	!	!LO:LB:g=original	!	!	!	!	!
1.D\	-tris	1F/	.	.	.	2.a\	.
.	.	.	.	4A/	-li-	.	.
!	!	!	!	!LO:TX:t=P:problem=kreska pseudotaktowa	!	!	!
.	.	.	.	2F/	-us	.	.
*	*	*	*	*	*	*custos:f	*
!	!	!	!	!	!	!LO:TX:t=P:problem=kreska pseudotaktowa	!
.	.	.	.	.	.	4g\	.
*	*	*	*	*	*	*xywh-pl-kk--i-2--0076:2012,1459,5685,951	*
!	!	!	!	!	!	!LO:LB:g=original	!
=50-	=50-	=50-	=50-	=50-	=50-	=50-	=50-
*	*	*lig	*	*	*	*	*
.	.	1D/	.	4A/	pa-	2f\	.
.	.	.	.	4A/	-tris	.	.
!LO:TX:t=P::problem=kreska pseudotaktowa&colon;między nutą a kropką	!	!	!	!	!	!	!
*	*ij	*	*	*	*ij	*	*
[y2D/	fi-	.	.	2.A/	fi-	4e\	.
!	!	!	!	!	!	!LO:TX:t=P:problem=kreska pseudotaktowa	!
.	.	.	.	.	.	4d\	.
!LO:N:xstem:cue	!	!	!	!	!	!	!
4D/]	.	1E/	.	.	.	2a\	.
4D/	-li-	.	.	4A/	-li-	.	.
!LO:TX:t=P:problem=kreska pseudotaktowa	!	!	!	!	!	!	!
2AA/	-us	.	.	1c\	-us	2A/	-tris
*	*	*Xlig	*	*	*	*	*
=51-	=51-	=51-	=51-	=51-	=51-	=51-	=51-
0AA/	Pa-	2C/	.	.	.	1.e\	Pa-
!	!	!	!	!LO:TX:t=P::problem=kreska pseudotaktowa&colon;między nutą a kropką	!	!	!
.	.	2AA/	.	2.e\	pa-	.	.
.	.	2BB/	.	.	.	.	.
.	.	.	.	4d\	-tris	.	.
!	!	!	!	!	!	!LO:TX:t=P:problem=kreska pseudotaktowa	!
.	.	2C/	.	4c#X\	fi-	2a\	.
!	!	!	!	!LO:TX:t=P:problem=kreska pseudotaktowa	!	!	!
.	.	.	.	4B\	-li-	.	.
=52-	=52-	=52-	=52-	=52-	=52-	=52-	=52-
!	!	!LO:TX:t=P:problem=kreska pseudotaktowa	!	!	!	!	!
!	!	!LO:N:vis=00	!	!	!	!	!
2D/	-tris	00.D/	-tris	2A/	-us	2f#X\	-tris
2.D/	fi-	.	.	2A/	pa-	2.f#\	fi-
.	.	.	.	2.d\	-tris	.	.
4D/	-li-	.	.	.	.	4g\	-li-
!	!	!	!	!	!	!LO:TX:t=P:problem=kreska pseudotaktowa	!
2D/	-us	.	.	.	.	2a\	-us
!	!	!	!	!LO:TX:t=P:problem=kreska pseudotaktowa	!	!	!
.	.	.	.	4d\	fi-	.	.
=53-	=53-	=53-	=53-	=53-	=53-	=53-	=53-
2.BB-X/	Pa-	.	.	2d\	-li-	2g\	pa-
.	.	.	.	2.B-X\	-us	4G/	.
4AA/	.	.	.	.	.	4A/	.
1GG/	.	.	.	.	.	4B-X/	.
.	.	.	.	4A/	pa-	4G/	.
.	.	.	.	4G/	.	1g\	.
.	.	.	.	4B-\	.	.	.
=54-	=54-	=54-	=54-	=54-	=54-	=54-	=54-
!LO:TX:t=P:problem=kreska pseudotaktowa	!	!	!	!LO:TX:t=P:problem=kreska pseudotaktowa	!	!	!
0D\	-tris	.	.	0A\	-tris	.	.
*	*Xij	*	*	*	*Xij	*	*
.	.	.	.	.	.	4f#X\	.
!	!	!	!	!	!	!LO:TX:t=P:problem=kreska pseudotaktowa	!
.	.	.	.	.	.	4e\	.
!	!	!	!	!	!	!LO:TX:t=P:problem=kreska pseudotaktowa	!
.	.	.	.	.	.	1lf#X\	-tris
!LO:LB:g=original	!	!	!	!LO:LB;g=original	!	!LO:LB:g=original	!
=55||-	=55||-	=55||-	=55||-	=55||-	=55||-	=55||-	=55||-
*M2/1	*	*M2/1	*	*M2/1	*	*M2/1	*
*met(C|)	*	*met(C|)	*	*met(C|)	*	*met(C|)	*
*xywh-pl-kk--i-2--0379:7876,3653,6503,1313	*	*	*	*xywh-pl-kk--i-2--0179:7950,2869,6471,1025	*	*	*
!	!	!	!	!	!	!LO:TX:b:t=4	!
2D/	Qui-	2r	.	0r	.	0r	.
!LO:TX:t=P:problem=kreska pseudotaktowa	!	!LO:TX:t=P:problem=kreska pseudotaktowa	!	!	!	!	!
2D/	-tol-	2A/	Qui-	.	.	.	.
4D/	-lis	2A/	-tol-	.	.	.	.
4C/	pec-	.	.	.	.	.	.
4D/	-ca-	4A/	-lis	.	.	.	.
!LO:TX:t=P:problem=kreska pseudotaktowa	!	!LO:TX:t=P:problem=kreska pseudotaktowa	!	!	!	!	!
4E\	-ta	4G/	pec-	.	.	.	.
=56-	=56-	=56-	=56-	=56-	=56-	=56-	=56-
2F\	mun-	4A/	-ca-	2r	.	0r	.
.	.	4Bny\	-ta	.	.	.	.
!LO:TX:t=P:problem=kreska pseudotaktowa	!	!LO:TX:t=P:problem=kreska pseudotaktowa	!	!LO:TX:t=P:problem=kreska pseudotaktowa	!	!	!
2A\	-di	2c\	mun-	2A/	Qui-	.	.
*	*ij	*	*	*	*	*	*
2AA/	Qui-	2e\	-di	2A/	-tol-	.	.
!LO:TX:t=P:problem=kreska pseudotaktowa	!	!LO:TX:t=P:problem=kreska pseudotaktowa	!	!	!	!	!
*	*	*	*ij	*	*	*	*
2AA/	-tol-	2E/	Qui-	4A/	-lis	.	.
!	!	!	!	!LO:TX:t=P:problem=kreska pseudotaktowa	!	!	!
.	.	.	.	4G/	pec-	.	.
=57-	=57-	=57-	=57-	=57-	=57-	=57-	=57-
*	*	*	*	*	*	*xywh-pl-kk--i-2--0076:1954,2163,5809,1001	*
4AA/	-lis	2E/	-tol-	4A/	-ca-	2e\	Qui-
4GG/	pec-	.	.	4Bny\	-ta	.	.
!	!	!	!	!LO:TX:t=P:problem=kreska pseudotaktowa	!	!LO:TX:t=P:problem=kreska pseudotaktowa	!
4AA/	-ca-	4E/	-lis	2cny\	mun-	2e\	-tol-
*	*	*custos:E	*	*	*	*	*
!	!	!LO:TX:t=P:problem=kreska pseudotaktowa	!	!	!	!	!
!LO:TX:t=P:problem=kreska pseudotaktowa	!	!	!	!	!	!	!
4BBny/	-ta	4D/	pec-	.	.	.	.
*	*	*xywh-pl-kk--i-2--0279:7987,603,6462,1190	*	*	*	*	*
!	!	!LO:PB:g=original	!	!	!	!	!
1C/	mun-	4E/	-ca-	2G/	-di	4e\	-lis
.	.	4F/	-ta	.	.	4d\	pec-
!	!	!LO:TX:t=P::problem=kreska pseudotaktowa&colon;między nutą a kropką	!	!LO:TX:t=P:problem=kreska pseudotaktowa	!	!	!
.	.	2.G/	mun-	2c\	mi-	4e\	-ca-
!	!	!	!	!	!	!LO:TX:t=P:problem=kreska pseudotaktowa	!
.	.	.	.	.	.	4fny\	-ta
=58-	=58-	=58-	=58-	=58-	=58-	=58-	=58-
2GG/	-di	.	.	2B\	-ſe-	2g\	mun-
.	.	4B\	-di	.	.	.	.
*	*Xij	*	*Xij	*	*	*	*
2.C/	mi-	1c\	mi-	2.G/	-re-	4e\	-di
.	.	.	.	.	.	2e\	mi-
4D/	-ſe-	.	.	4F/	.	4f\	-ſe-
!LO:TX:t=P:problem=kreska pseudotaktowa	!	!	!	!	!	!	!
2E\	-re-	1B\	-ſe-	1E/	.	1g\	-re-
=59-	=59-	=59-	=59-	=59-	=59-	=59-	=59-
1C/	-re	.	.	.	.	.	.
!	!	!LO:TX:t=P::problem=kreska pseudotaktowa&colon;między nutą a kropką	!	!LO:TX:t=P:problem=kreska pseudotaktowa	!	!	!
.	.	[y2A/	-re-	2A/	-re	1e\	-re
!LO:TX:t=P:problem=kreska pseudotaktowa	!	!	!	!	!	!	!
!	!	!LO:N:xstem:cue	!	!	!	!	!
1E\	no-	4A/]	.	1B\	no-	.	.
.	.	4A/	-re	.	.	.	.
!	!	!	!	!	!	!LO:TX:t=P:problem=kreska pseudotaktowa	!
.	.	2G#X/	no-	.	.	2Bny/	no-
=60-	=60-	=60-	=60-	=60-	=60-	=60-	=60-
!	!	!LO:TX:t=P:problem=kreska pseudotaktowa	!	!	!	!	!
4AA/	-bis	0A\	-bis	4A/	-bis	2c/	-bis
*	*	*	*	*custos:c	*	*	*
!	!	!	!	!LO:TX:t=P:problem=kreska pseudotaktowa	!	!	!
4AA/	Qui-	.	.	4c\	Qui-	.	.
*custos:A	*	*	*	*	*	*	*
*	*	*	*	*xywh-pl-kk--i-2--0179:8006,3643,6023,1174	*	*	*
!	!	!	!	!LO:LB:g=original	!	!	!
!LO:TX:t=P:problem=kreska pseudotaktowa	!	!	!	!	!	!	!
!	!	!	!	!LO:TX:t=P:problem=kreska pseudotaktowa	!	!LO:TX:t=P:problem=kreska pseudotaktowa	!
2AA/	-tol-	.	.	2c\	-tol-	2e\	Qui-
*xywh-pl-kk--i-2--0380:1701,647,6079,1110	*	*	*	*	*	*	*
!LO:PB:g=original	!	!	!	!	!	!	!
4AA/	-lis	.	.	4c\	-lis	2e\	-tol-
4GG/	pec-	.	.	4B\	pec-	.	.
4AA/	-ca-	.	.	4c\	-ca-	4e\	-lis
*	*	*	*	*	*	*custos:e	*
!	!	!	!	!	!	!LO:TX:t=P:problem=kreska pseudotaktowa	!
!LO:TX:t=P:problem=kreska pseudotaktowa	!	!	!	!LO:TX:t=P:problem=kreska pseudotaktowa	!	!	!
4BB/	-ta	.	.	4d\	-ta	4d\	pec-
*	*	*	*	*	*	*xywh-pl-kk--i-2--0076:2078,3023,5751,902	*
!	!	!	!	!	!	!LO:LB:g=original	!
=61-	=61-	=61-	=61-	=61-	=61-	=61-	=61-
2C/	mun-	1r	.	2c\	mun-	4e\	-ca-
.	.	.	.	.	.	4f\	-ta
!	!	!	!	!LO:TX:t=P:problem=kreska pseudotaktowa	!	!	!
2GG/	-di	.	.	2B\	.	2g\	mun-
!	!	!	!	!	!	!LO:TX:t=P:problem=kreska pseudotaktowa	!
2D/	qui-	2r	.	1.A\	-di	1f\	-di
!LO:TX:t=P:problem=kreska pseudotaktowa	!	!LO:TX:t=P:problem=kreska pseudotaktowa	!	!	!	!	!
2D/	-tol-	2A/	Qui-	.	.	.	.
=62-	=62-	=62-	=62-	=62-	=62-	=62-	=62-
4D/	-lis	2A/	-tol-	.	.	1r	.
4C/	pec-	.	.	.	.	.	.
!	!	!	!	!LO:TX:t=P:problem=kreska pseudotaktowa	!	!	!
*	*	*	*	*	*ij	*	*
4D/	-ca-	4A/	-lis	2A/	Qui-	.	.
!	!	!LO:TX:t=P:problem=kreska pseudotaktowa	!	!	!	!	!
4E\	-ta	4Gny/	pec-	.	.	.	.
2F\	mun-	4A/	-ca-	2A/	-tol-	2r	.
.	.	4B\	-ta	.	.	.	.
!LO:TX:t=P:problem=kreska pseudotaktowa	!	!LO:TX:t=P::problem=kreska pseudotaktowa&colon;między nutą a kropką	!	!	!	!LO:TX:t=P:problem=kreska pseudotaktowa	!
*	*	*	*	*	*	*	*ij
2C/	.	2.c\	mun-	4A/	-lis	2e\	Qui-
!	!	!	!	!LO:TX:t=P:problem=kreska pseudotaktowa	!	!	!
.	.	.	.	4G/	pec-	.	.
=63-	=63-	=63-	=63-	=63-	=63-	=63-	=63-
1AA/	-di	.	.	4A/	-ca-	2e\	-tol-
.	.	4B\	.	4B\	-ta	.	.
!	!	!LO:TX:t=P:problem=kreska pseudotaktowa	!	!LO:TX:t=P:problem=kreska pseudotaktowa	!	!	!
.	.	2A/	.	2c\	mun-	4e\	-lis
.	.	.	.	.	.	4d\	pec-
*	*ij	*	*	*	*	*	*
2E\	qui-	1E/	.	2B\	-di	4e\	-ca-
*	*	*	*	*	*Xij	*	*
.	.	.	.	.	.	4f\	-ta
!LO:TX:t=P:problem=kreska pseudotaktowa	!	!	!	!LO:TX:t=P:problem=kreska pseudotaktowa	!	!LO:TX:t=P:problem=kreska pseudotaktowa	!
2E\	-tol-	.	.	2B\	Qui-	2g\	mun-
=64-	=64-	=64-	=64-	=64-	=64-	=64-	=64-
!	!	!LO:SIC:v:t=custosB	!	!	!	!	!
4E\	-lis	2B\	-di	2B\	-tol-	1e\	-di
*	*	*	*	*	*	*	*Xij
4D/	pec-	.	.	.	.	.	.
!	!	!LO:TX:t=P:problem=kreska pseudotaktowa	!	!	!	!	!
4E\	-ca-	2r	.	4B\	-lis	.	.
!LO:TX:t=P:problem=kreska pseudotaktowa	!	!	!	!LO:TX:t=P:problem=kreska pseudotaktowa	!	!	!
4F\	-ta	.	.	4A/	pec-	.	.
*	*	*xywh-pl-kk--i-2--0279:7976,1437,6518,1112	*	*	*	*	*
!	!	!LO:LB:g=original	!	!	!	!	!
2.G\	mun-	2.B\	pec-	4B\	-ca-	1B/	pec-
*	*	*	*	*custos:d	*	*	*
.	.	.	.	4c\	-ta	.	.
*	*	*	*	*xywh-pl-kk--i-2--0180:1939,536,5864,1005	*	*	*
!	!	!	!	!LO:PB:g=original	!	!	!
.	.	.	.	1d\	mun-	.	.
!	!	!LO:TX:t=P:problem=kreska pseudotaktowa	!	!	!	!	!
4F\	.	4A/	.	.	.	.	.
=65-	=65-	=65-	=65-	=65-	=65-	=65-	=65-
2E\	.	2G/	-ca-	.	.	2e\	-ca-
!LO:TX:t=P:problem=kreska pseudotaktowa	!	!	!	!LO:TX:t=P:problem=kreska pseudotaktowa	!	!LO:TX:t=P:problem=kreska pseudotaktowa	!
2C/	.	1A\	-ta	2c\	.	2e\	-ta
1E\	.	.	.	1B\	.	1e\	mun-
!	!	!LO:TX:t=P:problem=kreska pseudotaktowa	!	!	!	!	!
.	.	2G#X/	mun-	.	.	.	.
=66-	=66-	=66-	=66-	=66-	=66-	=66-	=66-
!LO:TX:t=P:problem=kreska pseudotaktowa	!	!LO:TX:t=P:problem=kreska pseudotaktowa	!	!	!	!LO:TX:t=P:problem=kreska pseudotaktowa	!
1AA/	-di	1A\	-di	2c#X\	-di	1e\	-di
*	*Xij	*	*	*	*	*	*
!	!	!	!	!LO:TX:t=P::problem=kreska pseudotaktowa&colon;między nutą a kropką	!	!	!
.	.	.	.	[y2A/	ſu-	.	.
!	!	!	!	!LO:N:xstem:cue	!	!	!
2r	.	1AA/	ſu-	4A/]	.	0r	.
.	.	.	.	4B\	.	.	.
*custos:A	*	*	*	*	*	*	*
1AA/	ſu-	.	.	4c#X\	.	.	.
!	!	!	!	!LO:TX:t=P:problem=kreska pseudotaktowa	!	!	!
.	.	.	.	4d\	.	.	.
=67-	=67-	=67-	=67-	=67-	=67-	=67-	=67-
!	!	!LO:TX:t=P:problem= # above	!	!	!	!	!
.	.	1C#X/	-sci-	2.e\	.	.	.
*xywh-pl-kk--i-2--0380:1710,1517,6070,962	*	*	*	*	*	*	*
!LO:LB:g=original	!	!	!	!	!	!	!
!LO:TX:t=P:problem=kreska pseudotaktowa	!	!	!	!	!	!	!
2AA/	-ſci-	.	.	.	.	.	.
.	.	.	.	4e\	ſci-	.	.
!LO:TX:t=P:problem=kreska pseudotaktowa	!	!LO:TX:t=P:problem=kreska pseudotaktowa	!	!	!	!	!
1D\	-pe	1D/	-pe	1d\	-pe	2.a\	ſu-
!	!	!	!	!	!	!LO:TX:t=P:problem=kreska pseudotaktowa	!
.	.	.	.	.	.	4g\	.
=68-	=68-	=68-	=68-	=68-	=68-	=68-	=68-
2.D/	ſu-	1F#X/	de-	2.A/	ſu-	4f#X\	.
*	*	*	*	*	*	*custos:d	*
.	.	.	.	.	.	4e\	.
*	*	*	*	*	*	*xywh-pl-kk--i-2--0076:2095,3669,5727,1108	*
!	!	!	!	!	!	!LO:LB:g=original	!
.	.	.	.	.	.	2.d\	.
!	!	!	!	!LO:TX:t=P:problem=kreska pseudotaktowa	!	!	!
4C/	.	.	.	4A/	.	.	.
2BB/	.	1Gny/	-pre-	2B\	.	.	.
.	.	.	.	.	.	4d\	-ſci-
!	!	!	!	!	!	!LO:TX:t=P:problem=kreska pseudotaktowa	!
1GG/	.	.	.	2B\	.	2d\	-pe
=69-	=69-	=69-	=69-	=69-	=69-	=69-	=69-
.	.	1D/	-ca-	1B\	-ſci-	1B/	de-
!LO:TX:t=P:problem=kreska pseudotaktowa	!	!	!	!	!	!	!
2GG/	-ſci-	.	.	.	.	.	.
!	!	!LO:TX:t=P:problem=kreska pseudotaktowa	!	!	!	!	!
2C/	-pe	1Cny/	-ti-	2c\	-pe	2e\	-pre-
!	!	!	!	!LO:TX:t=P::problem=kreska pseudotaktowa&colon;między nutą a kropką	!	!	!
2.FF/	de-	.	.	2.A/	de-	1c\	-ca-
=70-	=70-	=70-	=70-	=70-	=70-	=70-	=70-
*	*	*lig	*	*	*	*	*
.	.	1Fny/	-o-	.	.	.	.
4FF/	-pre-	.	.	4A/	-pre-	.	.
!	!	!	!	!	!	!LO:TX:t=P:problem=kreska pseudotaktowa	!
4FF/	-ca-	.	.	4A/	-ca-	2c/	-ti-
*	*	*	*	*custos:G	*	*	*
!	!	!	!	!LO:TX:t=P:problem=kreska pseudotaktowa	!	!	!
!LO:TX:t=P:problem=kreska pseudotaktowa	!	!	!	!	!	!	!
4FF/	-ti-	.	.	4A/	-ti-	.	.
*	*	*	*	*xywh-pl-kk--i-2--0180:1889,1283,5923,1005	*	*	*
!	!	!	!	!LO:LB:g=original	!	!	!
1C/	-o-	1E/	.	2G/	-o-	2c/	-o-
!	!	!	!	!LO:TX:t=P:problem=kreska pseudotaktowa	!	!	!
.	.	.	.	2c\	-nem	2e\	-nem
*	*	*Xlig	*	*	*	*	*
=71-	=71-	=71-	=71-	=71-	=71-	=71-	=71-
!LO:TX:t=P:problem=kreska pseudotaktowa	!	!LO:TX:t=P:problem=kreska pseudotaktowa	!	!	!	!LO:TX:t=P:problem=kreska pseudotaktowa	!
1D\	-nem	1D/	-nem	2A/	no-	1A/	no-
.	.	.	.	1d\	.	.	.
*	*	*lig	*	*	*	*	*
0AA/	no-	1E/	no-	.	.	4A/	.
.	.	.	.	.	.	4B/	.
.	.	.	.	4c#X\	.	4c/	.
!	!	!	!	!LO:TX:t=P:problem=kreska pseudotaktowa	!	!LO:TX:t=P:problem=kreska pseudotaktowa	!
.	.	.	.	4B\	.	4d\	.
=72-	=72-	=72-	=72-	=72-	=72-	=72-	=72-
!	!	!LO:TX:t=P:problem=# below	!	!	!	!	!
.	.	1C#X/	.	4A/	.	1e\	.
.	.	.	.	4E/	.	.	.
!	!	!	!	!LO:TX:t=P:problem=kreska pseudotaktowa	!	!	!
.	.	.	.	2A/	.	.	.
*	*	*Xlig	*	*	*	*	*
!	!	!	!	!	!	!LO:TX:t=P:problem=kreska pseudotaktowa	!
2D/	-ſtram	2.D/	-ſtram	2A/	-ſtram.	1f#X\	-ſtram
!LO:TX:t=P:problem=kreska pseudotaktowa	!	!	!	!	!	!	!
2AA/	Qui	.	.	2cny\	Qui	.	.
*	*	*custos:C	*	*	*	*	*
!	!	!LO:TX:t=P:problem=kreska pseudotaktowa	!	!	!	!	!
.	.	4A/	Qui	.	.	.	.
*	*	*xywh-pl-kk--i-2--0279:8031,2249,6507,1012	*	*	*	*	*
!	!	!LO:LB:g=original	!	!	!	!	!
=73-	=73-	=73-	=73-	=73-	=73-	=73-	=73-
2A\	ſe-	2c\	ſe-	2A/	ſe-	1c\	Qui
4G\	-des	4B\	-des	4B\	-des	.	.
!LO:TX:t=P:problem=kreska pseudotaktowa	!	!LO:TX:t=P:problem=kreska pseudotaktowa	!	!LO:TX:t=P:problem=kreska pseudotaktowa	!	!	!
4F\	ad	4A/	ad	4B\	ad	.	.
!	!	!	!	!	!	!LO:TX:t=P:problem=kreska pseudotaktowa	!
2E\	dex-	2.G/	dex-	4.c\	dex-	1e\	ſe-
.	.	.	.	8c\	-te-	.	.
4D/	-te-	.	.	1c\	-ram	.	.
!LO:TX:t=P:problem=kreska pseudotaktowa	!	!LO:TX:t=P:problem=kreska pseudotaktowa	!	!	!	!	!
4C/	-ram	4G/	-te-	.	.	.	.
=74-	=74-	=74-	=74-	=74-	=74-	=74-	=74-
1G\	pa-	2G/	-ram	.	.	1d\	-des
!	!	!	!	!LO:TX:t=P:problem=kreska pseudotaktowa	!	!	!
.	.	2G/	pa-	2B\	-Pa-	.	.
!	!	!LO:TX:t=P:problem=kreska pseudotaktowa	!	!	!	!LO:TX:t=P:problem=kreska pseudotaktowa	!
2C/	-tris	1G/	-tris	1c\	-tris	1e\	ad
4c\	mi-	.	.	.	.	.	.
*custos:A	*	*	*	*	*	*	*
!LO:TX:t=P:problem=kreska pseudotaktowa	!	!	!	!	!	!	!
4Bny\	-ſe-	.	.	.	.	.	.
*xywh-pl-kk--i-2--0380:1757,2304,5931,943	*	*	*	*	*	*	*
!LO:LB:g=original	!	!	!	!	!	!	!
=75-	=75-	=75-	=75-	=75-	=75-	=75-	=75-
*	*	*	*	*	*	*lig	*
4A\	-re-	4c\	mi-	2e\	mi-	1c\	dex-
4G\	-re	4B\	-ſe-	.	.	.	.
!	!	!	!	!LO:TX:t=P:problem=kreska pseudotaktowa	!	!	!
4F\	mi-	4A/	-re-	2A/	-ſe-	.	.
!LO:TX:t=P:problem=kreska pseudotaktowa	!	!LO:TX:t=P:problem=kreska pseudotaktowa	!	!	!	!	!
4E\	-ſe-	4G/	-re	.	.	.	.
*	*	*	*	*	*	*custos:b	*
!	!	!	!	!	!	!LO:TX:t=P:problem=kreska pseudotaktowa	!
2.D/	-re-	4F/	mi-	2A/	-re-	1d\	.
.	.	4E/	-ſe-	.	.	.	.
.	.	4D/	-re-	1A/	-re	.	.
!LO:TX:t=P:problem=kreska pseudotaktowa	!	!	!	!	!	!	!
4D/	-re	4F/	-re	.	.	.	.
*	*	*	*	*	*	*Xlig	*
*	*	*	*	*	*	*xywh-pl-kk--i-2--0076:8061,603,6038,943	*
!	!	!	!	!	!	!LO:PB:g=original	!
=76-	=76-	=76-	=76-	=76-	=76-	=76-	=76-
!	!	!LO:TX:t=P:problem=kreska pseudotaktowa	!	!	!	!	!
1E\	no-	1E/	no-	.	.	1B/	-te-
*	*	*	*	*custos:A	*	*	*
!	!	!	!	!LO:TX:t=P:problem=kreska pseudotaktowa	!	!	!
.	.	.	.	2G#X/	no-	.	.
*	*	*	*	*xywh-pl-kk--i-2--0180:2009,2080,5764,985	*	*	*
!	!	!	!	!LO:LB:g=original	!	!	!
!	!	!	!	!	!	!LO:TX:t=P:problem=kreska pseudotaktowa	!
2AA/	-bis	2E/	-bis	2A/	-bis	1c\	-ram
!LO:TX:t=P:problem=kreska pseudotaktowa	!	!LO:TX:t=P:problem=kreska pseudotaktowa	!	!LO:TX:t=P:problem=kreska pseudotaktowa	!	!	!
*	*	*	*	*	*ij	*	*
2A\	Qui	2A/	qui	2e\	Qui	.	.
=77-	=77-	=77-	=77-	=77-	=77-	=77-	=77-
2A\	ſe-	2c\	ſe-	2c\	ſe-	1A/	Pa-
4G\	-des	4B\	-des	4d\	-des	.	.
!LO:TX:t=P:problem=kreska pseudotaktowa	!	!LO:TX:t=P:problem=kreska pseudotaktowa	!	!LO:TX:t=P:problem=kreska pseudotaktowa	!	!	!
4F\	as	4A/	ad	4d\	ad	.	.
!	!	!	!	!	!	!LO:TX:t=P:problem=kreska pseudotaktowa	!
2E\	dex-	4.G/	dex-	2e\	dex-	1c\	-tris
.	.	8G/	-te-	.	.	.	.
*	*	*custos:B	*	*	*	*	*
4D/	-te-	1c\	-ram	4e\	-te-	.	.
!	!	!	!	!LO:TX:t=P:problem=kreska pseudotaktowa	!	!	!
4C/	-ram	.	.	4e\	-ram	.	.
=78-	=78-	=78-	=78-	=78-	=78-	=78-	=78-
!LO:TX:t=P:problem=kreska pseudotaktowa	!	!	!	!	!	!	!
*	*	*	*	*	*	*lig	*
1G\	pa-	.	.	1d\	Pa-	1d\	mi-
*	*	*xywh-pl-kk--i-2--0279:8031,2972,6429,1045	*	*	*	*	*
!	!	!LO:LB:g=original	!	!	!	!	!
!	!	!LO:TX:t=P:problem=kreska pseudotaktowa	!	!	!	!	!
.	.	2B\	pa-	.	.	.	.
!	!	!LO:TX:t=P:problem=kreska pseudotaktowa	!	!	!	!	!
2C/	-tris	1c\	-tris	2e\	-tris	1c\	.
!	!	!	!	!LO:TX:t=P:problem=kreska pseudotaktowa	!	!	!
4F\	mi-	.	.	2A/	mi-	.	.
4E\	-ſe-	.	.	.	.	.	.
*	*	*	*	*	*	*Xlig	*
=79-	=79-	=79-	=79-	=79-	=79-	=79-	=79-
!	!	!	!	!	!	!LO:TX:t=P:problem=kreska pseudotaktowa	!
4D/	-re-	4f\	Mi-	2A/	-ſe-	1d\	-ſe-
4C/	-re	4e\	-ſe-	.	.	.	.
4BB-X/	mi-	4d\	-re-	2.d\	-re-	.	.
!LO:TX:t=P:problem=kreska pseudotaktowa	!	!LO:TX:t=P:problem=kreska pseudotaktowa	!	!	!	!	!
4AA/	-ſe-	4c\	-re	.	.	.	.
*	*	*	*	*	*	*lig	*
4GG/	-re-	4B-X\	no-	.	.	1e\	-re-
4FF/	-re	8A/L	.	4d\	-re	.	.
.	.	8G/J	.	.	.	.	.
!	!	!LO:TX:t=P:problem=kreska pseudotaktowa	!	!LO:TX:t=P:problem=kreska pseudotaktowa	!	!	!
2GG/	no-	2A/	.	2c#X\	no-	.	.
=80-	=80-	=80-	=80-	=80-	=80-	=80-	=80-
!LO:TX:t=P:problem=kreska pseudotaktowa	!	!	!	!	!	!	!
1D\	-bis	1A\	-bis	1d\	-bis	1d\	.
*	*ij	*	*ij	*	*Xij	*Xlig	*
*	*	*	*	*	*	*lig	*
4A\	mi-	4c\	Mi-	2.A/	Mi-	1c\	-re
4B\	-ſe-	4d\	-ſe-	.	.	.	.
4c\	-re-	4e\	-re-	.	.	.	.
*custos:G	*	*	*	*	*	*	*
!LO:TX:t=P:problem=kreska pseudotaktowa	!	!	!	!	!	!	!
!	!	!LO:TX:t=P:problem=kreska pseudotaktowa	!	!	!	!	!
4C/	-re	4e\	-re	2cny\	-ſe-	.	.
*xywh-pl-kk--i-2--0380:1710,3044,6126,1008	*	*	*	*	*	*	*
!LO:LB:g=original	!	!	!	!	!	!	!
=81-	=81-	=81-	=81-	=81-	=81-	=81-	=81-
2G\	no-	2d\	no-	.	.	1d\	.
.	.	.	.	2B\	-re-	.	.
!LO:TX:t=P:problem=kreska pseudotaktowa	!	!LO:TX:t=P:problem=kreska pseudotaktowa	!	!	!	!	!
2GG/	-bis	2G/	.	.	.	.	.
*	*Xij	*	*	*	*	*	*
!	!	!	!	!LO:TX:t=P:problem=kreska pseudotaktowa	!	!	!
.	.	.	.	4B\	-re	.	.
*	*	*	*	*	*	*Xlig	*
*	*	*	*	*	*	*lig	*
4G\	mi-	1G/	-bis	2d\	no-	1B/	no-
*	*	*	*Xij	*	*	*	*
4F\	-ſe-	.	.	.	.	.	.
!	!	!	!	!LO:TX:t=P:problem=kreska pseudotaktowa	!	!	!
4E\	-re-	.	.	2Gny/	-bis	.	.
!LO:TX:t=P:problem=kreska pseudotaktowa	!	!	!	!	!	!	!
4D/	-re	.	.	.	.	.	.
=82-	=82-	=82-	=82-	=82-	=82-	=82-	=82-
*	*	*	*	*custos:e	*	*	*
*	*	*	*	*	*ij	*	*
4C/	mi-	2G/	mi-	2E/	Mi-	1c\	.
4BBny/	-ſe-	.	.	.	.	.	.
*	*	*	*	*xywh-pl-kk--i-2--0180:1969,2876,5784,1005	*	*	*
!	!	!	!	!LO:LB:g=original	!	!	!
!	!	!LO:TX:t=P:problem=kreska pseudotaktowa	!	!LO:TX:t=P::problem=kreska pseudotaktowa&colon;między nutą a kropką	!	!	!
4AA/	-re-	2Cny/	-ſe-	2.e\	-ſe-	.	.
4GG/	.	.	.	.	.	.	.
*	*	*	*	*	*	*Xlig	*
!	!	!	!	!	!	!LO:TX:t=P:problem=kreska pseudotaktowa	!
2.FF/	.	2.F/	-re-	.	.	0.A/	-bis
.	.	.	.	4e\	-re-	.	.
.	.	.	.	1d\	-re	.	.
!LO:TX:t=P:problem=kreska pseudotaktowa	!	!	!	!	!	!	!
4FF/	-re	4F/	-re	.	.	.	.
=83-	=83-	=83-	=83-	=83-	=83-	=83-	=83-
*	*	*custos:F	*	*	*	*	*
!	!	!LO:TX:t=P:problem=kreska pseudotaktowa	!	!	!	!	!
1AA/	no-	1E/	no-	.	.	.	.
.	.	.	.	2c#X\	no-	.	.
*	*	*xywh-pl-kk--i-2--0279:7976,3706,6629,1223	*	*	*	*	*
!	!	!LO:LB:g=original	!	!	!	!	!
!LO:TX:t=P:problem=kreska pseudotaktowa	!	!LO:TX:t=P:problem=kreska pseudotaktowa	!	!LO:TX:t=P:problem=kreska pseudotaktowa	!	!	!
1D\	-bis	1F#X/	-bis	1d\	-bis	.	.
*	*	*	*	*	*Xij	*	*
=84-	=84-	=84-	=84-	=84-	=84-	=84-	=84-
2.D/	Quo-	2.F#X/	Quo-	2.A/	Quo-	2.d\	Quo-
!	!	!LO:TX:t=P:problem=kreska pseudotaktowa	!	!LO:TX:t=P:problem=kreska pseudotaktowa	!	!	!
4D/	-ni-	4F#/	-ni-	4A/	-ni-	4d\	-ni-
2D/	-am	2F#/	-am	2A/	-am	2d\	-am
!LO:TX:t=P:problem=kreska pseudotaktowa	!	!LO:TX:t=P:problem=kreska pseudotaktowa	!	!LO:TX:t=P:problem=kreska pseudotaktowa	!	!LO:TX:t=P:problem=kreska pseudotaktowa	!
2E\	tu-	2G/	tu	2cny\	tu	2G/	tu
=85-	=85-	=85-	=85-	=85-	=85-	=85-	=85-
2F#X\	-ſo-	2A/	ſo-	2c\	ſo-	2d\	ſo-
2G\	-lus	2Bny\	-lus	2B\	-lus	2d\	-lus
!LO:TX:t=P:problem=kreska pseudotaktowa	!	!LO:TX:t=P:problem=kreska pseudotaktowa	!	!LO:TX:t=P:problem=kreska pseudotaktowa	!	!	!
1C/	San-	1c\	San-	1e\	San-	1g\	San-
=86-	=86-	=86-	=86-	=86-	=86-	=86-	=86-
2G\	-ctus	2B\	-ctus	2d\	-ctus	2g\	-ctus
*	*	*	*	*	*	*custos:g	*
!	!	!	!	!	!	!LO:TX:t=P:problem=kreska pseudotaktowa	!
!	!	!	!	!LO:TX:t=P:problem=kreska pseudotaktowa	!	!	!
2GG/	tu	2B\	tu	2d\	tu	2g\	tu
*	*	*	*	*	*	*xywh-pl-kk--i-2--0076:8041,1358,6604,933	*
!	!	!	!	!	!	!LO:LB:g=original	!
2BB/	ſo-	2d\	ſo-	2B\	ſo-	2g\	ſo-
!LO:TX:t=P:problem=kreska pseudotaktowa	!	!LO:TX:t=P:problem=kreska pseudotaktowa	!	!LO:TX:t=P:problem=kreska pseudotaktowa	!	!LO:TX:t=P:problem=kreska pseudotaktowa	!
2D/	-lus	2D/	-lus	2A/	-lus	2d\	-lus
=87-	=87-	=87-	=87-	=87-	=87-	=87-	=87-
2.GG/	Do-	2.G/	Do-	2.B\	Do-	2.d\	Do-
!	!	!LO:TX:t=P:problem=kreska pseudotaktowa	!	!LO:TX:t=P:problem=kreska pseudotaktowa	!	!LO:TX:t=P:problem=kreska pseudotaktowa	!
4GG/	-mi-	4G/	-mi-	4B\	-mi-	4d\	-mi-
2D/	-nus	2F#X/	-nus	2A/	-nus	2d\	-nus
*custos:D	*	*	*	*	*	*	*
!LO:TX:t=P:problem=kreska pseudotaktowa	!	!	!	!	!	!	!
!	!	!LO:TX:t=P:problem=kreska pseudotaktowa	!	!LO:TX:t=P:problem=kreska pseudotaktowa	!	!	!
2D/	tu	2A/	tu	2F/	tu	2fny\	tu
*xywh-pl-kk--i-2--0380:1723,3816,6172,1087	*	*	*	*	*	*	*
!LO:LB:g=original	!	!	!	!	!	!	!
=88-	=88-	=88-	=88-	=88-	=88-	=88-	=88-
2D/	ſo-	2A/	ſo-	4D/	ſo-	2a\	ſo-
.	.	.	.	2d\	-lus	.	.
4D/	-lus	4A/	-lus	.	.	4a\	-lus
*	*	*	*	*custos:c	*	*	*
!	!	!	!	!LO:TX:t=P:problem=kreska pseudotaktowa	!	!	!
!	!	!LO:TX:t=P:problem=kreska pseudotaktowa	!	!	!	!LO:TX:t=P:problem=kreska pseudotaktowa	!
4D/	al-	4A/	al-	4d\	al-	4e\	al-
*	*	*	*	*xywh-pl-kk--i-2--0180:1949,3593,5824,1264	*	*	*
!	!	!	!	!LO:LB:g=original	!	!	!
1.AA/	-tiſ-	1.A\	-tiſ-	4c#X\	-tiſ-	1.e\	-tiſ-
.	.	.	.	4B\	.	.	.
!	!	!	!	!LO:TX:t=P:problem= # above	!	!	!
.	.	.	.	4c#X\	.	.	.
!	!	!	!	!LO:TX:t=P:problem=kreska pseudotaktowa	!	!	!
.	.	.	.	4d\	.	.	.
=89-	=89-	=89-	=89-	=89-	=89-	=89-	=89-
.	.	.	.	2e\	.	.	.
2AA/	-si-	2A/	-si-	2c#X\	-si-	2a\	-si-
*	*	*custos:A	*	*	*	*	*
!	!	!LO:TX:t=P:problem=kreska pseudotaktowa	!	!	!	!	!
!LO:TX:t=P:problem=kreska pseudotaktowa	!	!	!	!LO:TX:t=P:problem=kreska pseudotaktowa	!	!LO:TX:t=P:problem=kreska pseudotaktowa	!
!	!	!	!	!	!	!LO:SIC:S:o:v:t=kasownik zamiast krzyżyk	!
1D\	-mus	1A\	-mus	1d\	-mus	1f#X\	-mus
*	*	*xywh-pl-kk--i-2--0280:1865,599,5997,1167	*	*	*	*	*
!	!	!LO:PB:g=original	!	!	!	!	!
=90-	=90-	=90-	=90-	=90-	=90-	=90-	=90-
*M3/1	*	*M3/1	*	*M3/1	*	*M3/1	*
0AA/	Je-	0A\	Je-	0cny\	Je-	0e\	Je-
!LO:TX:t=P:problem=kreska pseudotaktowa	!	!	!	!LO:TX:t=P:problem=kreska pseudotaktowa	!	!LO:TX:t=P:problem=kreska pseudotaktowa	!
1E\	-ſu	1G#X/	-ſu	1B\	-ſu	1e\	-ſu
=91-	=91-	=91-	=91-	=91-	=91-	=91-	=91-
0AA/	Chri-	0A\	Chri-	0c\	Chri-	0e\	Chri-
!	!	!LO:TX:t=P:problem=kreska pseudotaktowa	!	!LO:TX:t=P:problem=kreska pseudotaktowa	!	!LO:TX:t=P:problem=kreska pseudotaktowa	!
1AA/	-ſte	1A\	-ſte	1c\	-ſte	1e\	-ſte
=92-	=92-	=92-	=92-	=92-	=92-	=92-	=92-
*	*ij	*	*ij	*	*ij	*	*ij
0FF/	Je-	0c\	Je-	0A\	Je-	0fny\	Je-
!	!	!	!	!LO:TX:t=P:problem=kreska pseudotaktowa	!	!LO:TX:t=P:problem=kreska pseudotaktowa	!
1FF/	-ſu	1c\	-ſu	1A\	-ſu	1f\	-su
=93-	=93-	=93-	=93-	=93-	=93-	=93-	=93-
!	!	!	!	!	!	!LO:TX:t=P:problem=kreska pseudotaktowa	!
0.BB-X/	Chri-	0.d\	Chri-	0.B-X\	Chri-	0.f\	Chri-
=94-	=94-	=94-	=94-	=94-	=94-	=94-	=94-
*	*	*	*	*	*	*custos:f	*
!	!	!	!	!	!	!LO:TX:t=P:problem=kreska pseudotaktowa	!
!LO:TX:t=P:problem=kreska pseudotaktowa	!	!	!	!LO:TX:t=P:problem=kreska pseudotaktowa	!	!	!
0.FF/	-ſte	0.A\	-ſte	0.c\	-ſte	0.f\	-ste
*	*Xij	*	*Xij	*	*Xij	*	*Xij
*	*	*	*	*	*	*xywh-pl-kk--i-2--0076:8071,2132,6395,993	*
!	!	!	!	!	!	!LO:LB:g=original	!
=95-	=95-	=95-	=95-	=95-	=95-	=95-	=95-
!	!	!LO:TX:t=P:problem=kreska pseudotaktowa	!	!	!	!	!
1D\	Cum	0.A\	Cum	1d\	Cum	1f\	Cum
1Fny\	San-	.	.	1A\	San-	1f\	San-
!LO:TX:t=P:problem=kreska pseudotaktowa	!	!	!	!LO:TX:t=P:problem=kreska pseudotaktowa	!	!LO:TX:t=P:problem=kreska pseudotaktowa	!
1D\	-cto	.	.	1d\	-cto	1f\	-cto
=96-	=96-	=96-	=96-	=96-	=96-	=96-	=96-
1.C/	Spi-	0c\	San-	1.G/	Spi-	1.e\	Spi-
2C/	-ri-	.	.	2c\	-ri-	2e\	-ri-
!LO:TX:t=P:problem=kreska pseudotaktowa	!	!	!	!LO:TX:t=P:problem=kreska pseudotaktowa	!	!LO:TX:t=P:problem=kreska pseudotaktowa	!
1C/	-tu	1Gny/	-cto	1c\	-tu	1e\	-tu
*	*	*	*	*xywh-pl-kk--i-2--0180:7912,596,6292,905	*	*	*
!	!	!	!	!LO:PB:g=original	!	!	!
=97-	=97-	=97-	=97-	=97-	=97-	=97-	=97-
*	*ij	*lig	*	*	*ij	*	*ij
1FF/	Cum	1Fny/	Spi-	1A\	Cum	1c\	Cum
1AA/	San-	1E/	.	1c\	San-	1A/	San-
*	*	*Xlig	*	*	*	*	*
*custos:GG	*	*	*	*	*	*	*
!LO:TX:t=P:problem=kreska pseudotaktowa	!	!	!	!	!	!	!
!	!	!	!	!LO:TX:t=P:problem=kreska pseudotaktowa	!	!LO:TX:t=P:problem=kreska pseudotaktowa	!
1FF/	-cto	1F/	-ri-	1c\	-cto	1A/	-cto
!LO:PB:g=original	!	!	!	!	!	!	!
=98-	=98-	=98-	=98-	=98-	=98-	=98-	=98-
!	!	!LO:TX:t=P:problem=kreska pseudotaktowa	!	!	!	!	!
*xywh-pl-kk--i-2--0380:7885,596,6862,1099	*	*	*	*	*	*	*
1.GG/	Spi-	0.D/	-tu	1.G/	Spi-	1.B/	Spi-
2GG/	-ri-	.	.	2G/	-ri-	2B/	-ri-
!LO:TX:t=P:problem=kreska pseudotaktowa	!	!	!	!LO:TX:t=P:problem=kreska pseudotaktowa	!	!LO:TX:t=P:problem=kreska pseudotaktowa	!
1GG/	-tu	.	.	1G/	-tu	1B/	-tu
=99-	=99-	=99-	=99-	=99-	=99-	=99-	=99-
1GG/	Cum	1G/	in	1Bny\	Cum	1d\	Cum-
1BBny/	San-	1G/	glo-	1B\	San-	1d\	-san-
!LO:TX:t=P:problem=kreska pseudotaktowa	!	!	!	!LO:TX:t=P:problem=kreska pseudotaktowa	!	!LO:TX:t=P:problem=kreska pseudotaktowa	!
1GG/	-cto	1G/	-ri-	1B\	-cto	1d\	-cto
=100-	=100-	=100-	=100-	=100-	=100-	=100-	=100-
1.D\	Spi-	0D/	-a	1.A\	Spi-	1.f\	Spi-
2D/	-ri-	.	.	2A/	-ri-	2f\	-ri-
*	*	*custos:F	*	*	*	*	*
!LO:TX:t=P:problem=kreska pseudotaktowa	!	!	!	!LO:TX:t=P:problem=kreska pseudotaktowa	!	!LO:TX:t=P:problem=kreska pseudotaktowa	!
1AA/	-tu	1C/	De-	1A\	-tu	1f\	-tu
*	*Xij	*	*	*	*Xij	*	*Xij
*	*	*xywh-pl-kk--i-2--0280:1808,1543,5969,1001	*	*	*	*	*
!	!	!LO:LB:g=original	!	!	!	!	!
=101-	=101-	=101-	=101-	=101-	=101-	=101-	=101-
*	*	*lig	*	*	*	*	*
1F\	in	1F/	-i	1c\	in	1f\	in
1F\	glo-	0G/	pa-	1c\	glo-	1c\	glo-
!LO:TX:t=P:problem=kreska pseudotaktowa	!	!	!	!LO:TX:t=P:problem=kreska pseudotaktowa	!	!LO:TX:t=P:problem=kreska pseudotaktowa	!
1E\	-ri-	.	.	1G/	-ri-	1c\	-ri-
*	*	*Xlig	*	*	*	*	*
=102-	=102-	=102-	=102-	=102-	=102-	=102-	=102-
!	!	!LO:TX:t=P:problem=kreska pseudotaktowa	!	!	!	!	!
1F\	-a	0.A\	-tris	1F/	-a	1c\	-a
1D\	De-	.	.	1F/	De-	1f\	De-
*	*	*	*	*	*	*custos:d	*
!	!	!	!	!	!	!LO:TX:t=P:problem=kreska pseudotaktowa	!
!LO:TX:t=P:problem=kreska pseudotaktowa	!	!	!	!LO:TX:t=P:problem=kreska pseudotaktowa	!	!	!
1AA/	-i	.	.	1C/	-i	1e\	-i
*	*	*	*	*	*	*xywh-pl-kk--i-2--0076:8121,3016,6256,834	*
!	!	!	!	!	!	!LO:LB:g=original	!
=103-	=103-	=103-	=103-	=103-	=103-	=103-	=103-
0D\	pa-	0A\	a-	2D/	pa-	0.d\	Pa-
.	.	.	.	2E/	.	.	.
.	.	.	.	2F/	.	.	.
.	.	.	.	2G/	.	.	.
!LO:TX:t=P:problem=kreska pseudotaktowa	!	!	!	!LO:TX:t=P:problem=kreska pseudotaktowa	!	!	!
!	!	!LO:TX:t=P:problem= # above	!	!	!	!	!
1D\	-tris	1F#X/	.	1A\	.	.	.
=104-	=104-	=104-	=104-	=104-	=104-	=104-	=104-
*	*	*lig	*	*lig	*	*	*
1BB/	a-	1G/	.	1B\	.	1d\	-tris
*	*	*	*	*custos:c	*	*	*
*	*	*	*	*	*	*lig	*
1AA/	.	1Fny/	.	0c\	-tris	1f\	a-
*	*	*Xlig	*	*	*	*	*
!LO:TX:t=P:problem=kreska pseudotaktowa	!	!LO:TX:t=P:problem=kreska pseudotaktowa	!	!	!	!LO:TX:t=P:problem=kreska pseudotaktowa	!
1C/	.	1E/	.	.	.	1g\	.
*	*	*	*	*Xlig	*	*Xlig	*
=105-	=105-	=105-	=105-	=105-	=105-	=105-	=105-
*	*	*	*	*xywh-pl-kk--i-2--0180:7942,1263,6780,1045	*	*	*
1.F\	.	0.F/	.	2c\	a-	1f\	.
.	.	.	.	2B\	.	.	.
.	.	.	.	2A/	.	1c\	.
2E\	.	.	.	2G/	.	.	.
!	!	!	!	!	!	!LO:TX:t=P:problem=kreska pseudotaktowa	!
2D/	.	.	.	2F/	.	1d\	.
!LO:TX:t=P:problem=kreska pseudotaktowa	!	!	!	!LO:TX:t=P:problem=kreska pseudotaktowa	!	!	!
2C/	.	.	.	2E/	.	.	.
=106-	=106-	=106-	=106-	=106-	=106-	=106-	=106-
2BB/	.	0D/	.	1.G/	.	2d\	.
2AA/	.	.	.	.	.	2c/	.
*custos:AA	*	*	*	*	*	*	*
!LO:TX:t=P:problem=kreska pseudotaktowa	!	!	!	!	!	!	!
0GG/	.	.	.	.	.	2B/	.
.	.	.	.	2A/	.	2A/	.
!	!	!LO:TX:t=P:problem=kreska pseudotaktowa	!	!LO:TX:t=P:problem=kreska pseudotaktowa	!	!LO:TX:t=P:problem=kreska pseudotaktowa	!
.	.	1E/	.	1B\	.	1G/	.
*xywh-pl-kk--i-2--0380:7907,1406,6796,1054	*	*	*	*	*	*	*
!LO:LB:g=original	!	!	!	!	!	!	!
=107-	=107-	=107-	=107-	=107-	=107-	=107-	=107-
*lig	*	*lig	*	*	*	*	*
1AA/	.	1C/	.	1A\	.	1c\	.
1FF/	.	1AA/	.	1c\	.	0f\	.
*Xlig	*	*Xlig	*	*	*	*	*
!LO:TX:t=P:problem=kreska pseudotaktowa	!	!LO:TX:t=P:problem=kreska pseudotaktowa	!	!LO:TX:t=P:problem=kreska pseudotaktowa	!	!	!
1GG/	.	1BB/	.	1B\	.	.	.
=108-	=108-	=108-	=108-	=108-	=108-	=108-	=108-
!	!	!	!	!	!	!LO:TX:t=P:problem=kreska pseudotaktowa	!
*	*	*lig	*	*	*	*	*
0.AA/	.	0.C#X/	.	0.A\	.	0.e\	.
=109-	=109-	=109-	=109-	=109-	=109-	=109-	=109-
!LO:TX:t=P:problem=kreska pseudotaktowa	!	!LO:TX:t=P:problem=kreska pseudotaktowa	!	!LO:TX:t=P:problem=kreska pseudotaktowa	!	!LO:TX:t=P:problem=kreska pseudotaktowa	!
0.D\	-men	0.D/	-men	0.A\	-men	0.f\	-men
*	*	*Xlig	*	*	*	*	*
=110-	=110-	=110-	=110-	=110-	=110-	=110-	=110-
2E\	a-	1r	.	0e\	a-	0g\	a-
2F\	.	.	.	.	.	.	.
2G\	.	1r	.	.	.	.	.
2E\	.	.	.	.	.	.	.
!LO:TX:t=P:problem=kreska pseudotaktowa	!	!LO:TX:t=P:problem=kreska pseudotaktowa	!	!LO:TX:t=P:problem=kreska pseudotaktowa	!	!	!
1A\	.	1A\	a-	1c#X\	.	1e\	.
=111-	=111-	=111-	=111-	=111-	=111-	=111-	=111-
*	*	*lig	*	*lig	*	*lig	*
1D\	.	1A\	.	1d\	.	1f\	.
2E\	.	0G/	.	1cny\	.	1e\	.
2F\	.	.	.	.	.	.	.
*	*	*Xlig	*	*Xlig	*	*Xlig	*
!LO:TX:t=P:problem=kreska pseudotaktowa	!	!	!	!LO:TX:t=P:problem=kreska pseudotaktowa	!	!LO:TX:t=P:problem=kreska pseudotaktowa	!
1G\	.	.	.	1B\	.	1d\	.
=112-	=112-	=112-	=112-	=112-	=112-	=112-	=112-
*	*	*custos:F	*	*	*	*	*
!	!	!LO:TX:t=P:problem=kreska pseudotaktowa	!	!	!	!	!
!LO:TX:t=P:problem=kreska pseudotaktowa	!	!	!	!	!	!	!
0.C/	-men	0.G/	-men	0.c\	-men	0.e\	-men
*	*	*xywh-pl-kk--i-2--0280:1863,2247,5867,1065	*	*	*	*	*
!	!	!LO:LB:g=original	!	!	!	!	!
=113-	=113-	=113-	=113-	=113-	=113-	=113-	=113-
*	*ij	*	*ij	*	*ij	*	*
2D\	a-	2F#X/	a-	0A\	a-	0d\	a-
2E\	.	2G/	.	.	.	.	.
!LO:TX:t=P:problem= # above	!	!	!	!	!	!	!
2F#X\	.	2A/	.	.	.	.	.
2D\	.	2F#X/	.	.	.	.	.
*	*	*	*	*custos:G	*	*custos:e	*
!	!	!	!	!LO:TX:t=P:problem=kreska pseudotaktowa	!	!LO:TX:t=P:problem=kreska pseudotaktowa	!
!LO:TX:t=P:problem=kreska pseudotaktowa	!	!LO:TX:t=P:problem=kreska pseudotaktowa	!	!	!	!	!
1G\	.	1G/	.	1B\	.	1d\	.
!	!	!	!	!LO:LB:g=original	!	!LO:LB:g=original	!
=114-	=114-	=114-	=114-	=114-	=114-	=114-	=114-
*lig	*	*lig	*	*lig	*	*	*
*	*	*	*	*xywh-pl-kk--i-2--0180:7962,2049,6471,1045	*	*xywh-pl-kk--i-2--0076:8131,3682,6197,993	*
1E\	.	1c\	.	1G/	.	1e\	.
1C/	.	0c\	.	1E/	.	0e\	.
*Xlig	*	*Xlig	*	*Xlig	*	*	*
!	!	!	!	!LO:TX:t=P:problem=kreska pseudotaktowa	!	!	!
1D\	.	.	.	1F#X/	.	.	.
=115-	=115-	=115-	=115-	=115-	=115-	=115-	=115-
*custos:AA	*	*	*	*	*	*	*
!LO:TX:t=P:problem=kreska pseudotaktowa	!	!	!	!	!	!	!
!	!	!	!	!LO:TX:t=P:problem=kreska pseudotaktowa	!	!LO:TX:t=P:problem=kreska pseudotaktowa	!
!	!	!	!	!LO:TX:t=P:problem=# above	!	!	!
0.E\	-men	0B\	.	0.G#X/	-men	0.e\	.
*	*Xij	*	*	*	*	*	*
!	!	!LO:TX:t=P:problem=kreska pseudotaktowa	!	!	!	!	!
.	.	1B\	.	.	.	.	.
*xywh-pl-kk--i-2--0380:7852,2195,6251,1043	*	*	*	*	*	*	*
!LO:LB:g=original	!	!	!	!	!	!	!
=116-	=116-	=116-	=116-	=116-	=116-	=116-	=116-
0AA/	a-	0c\	.	1.A\	a-	0a\	.
.	.	.	.	2Gny/	.	.	.
!LO:TX:t=P:problem=kreska pseudotaktowa	!	!	!	!	!	!LO:TX:t=P:problem=kreska pseudotaktowa	!
1D\	.	1d\	.	1A\	.	1f#X\	.
=117-	=117-	=117-	=117-	=117-	=117-	=117-	=117-
*lig	*	*	*	*lig	*	*lig	*
1BB/	.	1d\	.	1B\	.	1g\	.
!	!	!LO:TX:t=P:problem=kreska pseudotaktowa	!	!	!	!	!
1AA/	.	0c\	.	1c\	.	1fny\	.
*Xlig	*	*	*	*Xlig	*	*Xlig	*
!LO:TX:t=P:problem=kreska pseudotaktowa	!	!	!	!LO:TX:t=P:problem=kreska pseudotaktowa	!	!LO:TX:t=P:problem=kreska pseudotaktowa	!
1C/	.	.	.	1G/	.	1e\	.
=118-	=118-	=118-	=118-	=118-	=118-	=118-	=118-
1.Fny\	.	1c\	.	1A\	.	0.f\	.
.	.	1A\	.	2Fny/	.	.	.
2E\	.	.	.	2G/	.	.	.
!	!	!LO:TX:t=P:problem=kreska pseudotaktowa	!	!LO:TX:t=P:problem=kreska pseudotaktowa	!	!	!
2D/	.	1d\	.	1A\	.	.	.
!LO:TX:t=P:problem=kreska pseudotaktowa	!	!	!	!	!	!	!
2C/	.	.	.	.	.	.	.
=119-	=119-	=119-	=119-	=119-	=119-	=119-	=119-
2BB/	.	1G/	.	1B\	.	0d\	.
2AA/	.	.	.	.	.	.	.
1GG/	.	0B\	.	0d\	.	.	.
!LO:TX:t=P:problem=kreska pseudotaktowa	!	!	!	!	!	!	!
1GG/	.	.	.	.	.	1g\	.
=120-	=120-	=120-	=120-	=120-	=120-	=120-	=120-
*	*	*	*	*lig	*	*	*
0.AA/	.	0A\	.	1c\	.	0.e\	.
.	.	.	.	1A\	.	.	.
*	*	*	*	*Xlig	*	*	*
!	!	!LO:TX:t=P:problem= # below	!	!LO:TX:t=P:problem=kreska pseudotaktowa	!	!	!
.	.	0F#X/	.	1B\	.	.	.
=121-	=121-	=121-	=121-	=121-	=121-	=121-	=121-
0.AA/	.	.	.	0.c#X\	.	0e\	.
.	.	0A\	.	.	.	.	.
.	.	.	.	.	.	1a\	.
=122-	=122-	=122-	=122-	=122-	=122-	=122-	=122-
*	*	*custos:G	*	*custos:B	*	*	*
!	!	!	!	!LO:TX:t=P:problem=kreska pseudotaktowa	!	!	!
!LO:TX:t=P:problem=kreska pseudotaktowa	!	!	!	!	!	!LO:TX:t=P:problem=kreska pseudotaktowa	!
0.D\	-men	0.A\	.	0.d\	-men	0.f#X\	-men
*	*	*	*	*	*Xij	*	*
*	*	*xywh-pl-kk--i-2--0280:1900,3035,1789,945	*	*xywh-pl-kk--i-2--0180:8042,2836,5256,1025	*	*	*
!	!	!LO:LB:g=original	!	!LO:LB:g=original	!	!	!
=123-	=123-	=123-	=123-	=123-	=123-	=123-	=123-
*M2/1	*	*M2/1	*	*M2/1	*	*M2/1	*
*met(C)	*	*met(C)	*	*met(C)	*	*met(C)	*
2GG/	a-	2G/	.	2B-X\	a-	4.d\	a-
.	.	.	.	.	.	8c/	.
!	!	!	!	!LO:TX:t=P:problem=kreska pseudotaktowa	!	!	!
4D/	.	2D/	.	2.d\	.	4B-X/	.
!LO:TX:t=P:problem=kreska pseudotaktowa	!	!	!	!	!	!	!
4C/	.	.	.	.	.	4c/	.
!	!	!LO:TX:t=P:problem=kreska pseudotaktowa	!	!	!	!	!
2.BB-X/	.	[y00lD/	-men	.	.	4d\	.
*	*	*	*Xij	*	*	*	*
.	.	.	.	4cny\	.	4e\	.
*	*	*	*	*	*	*custos:g	*
!	!	!	!	!	!	!LO:TX:t=P:problem=kreska pseudotaktowa	!
!	!	!	!	!LO:TX:t=P:problem=kreska pseudotaktowa	!	!	!
.	.	.	.	2B-X\	.	2fny\	.
!LO:TX:t=P:problem=kreska pseudotaktowa	!	!	!	!	!	!	!
4AA/	.	.	.	.	.	.	.
*	*	*	*	*	*	*xywh-pl-kk--i-2--0077:1845,540,3736,1017	*
!	!	!	!	!	!	!LO:PB:g=original	!
=124-	=124-	=124-	=124-	=124-	=124-	=124-	=124-
4BB-X/	.	.	.	4d\	.	2g\	.
4AA/	.	.	.	4c\	.	.	.
1GG/	.	.	.	4B-X\	.	4d\	.
!	!	!	!	!LO:TX:t=P:problem=kreska pseudotaktowa	!	!LO:TX:t=P:problem=kreska pseudotaktowa	!
.	.	.	.	4A/	.	4c/	.
.	.	.	.	2G/	.	4Bny/	.
.	.	.	.	.	.	2A/	.
2FF#X/	.	.	.	2A/	.	.	.
.	.	.	.	.	.	2d\	.
=125-	=125-	=125-	=125-	=125-	=125-	=125-	=125-
0GG/	.	.	.	2B-X\	.	.	.
.	.	.	.	.	.	4c/	.
.	.	.	.	4d\	.	4B/	.
!	!	!	!	!LO:TX:t=P:problem=kreska pseudotaktowa	!	!LO:TX:t=P:problem=kreska pseudotaktowa	!
.	.	.	.	4c\	.	4A/	.
.	.	0.D/]	.	4B-X\	.	2G/	.
.	.	.	.	4A/	.	.	.
.	.	.	.	2B-X\	.	1g\	.
=126-	=126-	=126-	=126-	=126-	=126-	=126-	=126-
!LO:TX:t=P:problem=kreska pseudotaktowa	!	!	!	!LO:TX:t=P:problem=kreska pseudotaktowa	!	!	!
0D\	-men	.	.	0A\	-men	.	.
!	!	!	!	!	!	!LO:TX:t=P:problem=kreska pseudotaktowa	!
.	.	.	.	.	.	2f#X\	.
!	!	!	!	!	!	!LO:TX:t=P:problem=kreska pseudotaktowa	!
!	!	!	!	!	!	!LO:TX:t=P:problem= # above	!
.	.	.	.	.	.	1f#\	-men
==	==	==	==	==	==	==	==
*-	*-	*-	*-	*-	*-	*-	*-
!!!system-decoration: [(s1,s2,s3,s4)]
!!!RDF**kern: l = terminal long
!!!ENC: Berenika Jozajtis
!!!END: 2022-01-26
!!!ENC: Leszek Kubiak
!!!END: 2022-01-29
!!!ENC-iiif: Marta Opryszak
!!!END-iiif: 2022-08-25
